%
(Header)
(Generated by gcodetools from Inkscape.)
(Using default header. To add your own header create file "header" in the output dir.)
M3
(Header end.)
G21 (All units in mm)

(Start cutting path id: path102)
(Change tool to Default tool)

G00 Z 5.0000
G00 X 3.7825 Y 713.8607

G01 Z 0.0000 F 100.0000(Penetrate)
G01 X 4.4558 Y 714.0977 Z 0.0000 F 400.0000
G01 X 5.0285 Y 714.4927 Z 0.0000
G01 X 5.5008 Y 715.0457 Z 0.0000
G01 X 5.8700 Y 715.7487 Z 0.0000
G01 X 6.1338 Y 716.5937 Z 0.0000
G01 X 6.2920 Y 717.5807 Z 0.0000
G01 X 6.3448 Y 718.7087 Z 0.0000
G01 X 6.2945 Y 719.8547 Z 0.0000
G01 X 6.1438 Y 720.8497 Z 0.0000
G01 X 5.8925 Y 721.6967 Z 0.0000
G01 X 5.5408 Y 722.3927 Z 0.0000
G01 X 5.0840 Y 722.9377 Z 0.0000
G01 X 4.5165 Y 723.3257 Z 0.0000
G01 X 3.8385 Y 723.5597 Z 0.0000
G01 X 3.0497 Y 723.6367 Z 0.0000
G01 X 2.2400 Y 723.5607 Z 0.0000
G01 X 1.5467 Y 723.3297 Z 0.0000
G01 X 0.9700 Y 722.9447 Z 0.0000
G01 X 0.5097 Y 722.4057 Z 0.0000
G01 X 0.1584 Y 721.7137 Z 0.0000
G01 X -0.0925 Y 720.8667 Z 0.0000
G01 X -0.2431 Y 719.8657 Z 0.0000
G01 X -0.2933 Y 718.7087 Z 0.0000
G01 X -0.2416 Y 717.5747 Z 0.0000
G01 X -0.0865 Y 716.5847 Z 0.0000
G01 X 0.1719 Y 715.7397 Z 0.0000
G01 X 0.5337 Y 715.0387 Z 0.0000
G01 X 0.9986 Y 714.4887 Z 0.0000
G01 X 1.5660 Y 714.0957 Z 0.0000
G01 X 2.2361 Y 713.8597 Z 0.0000
G01 X 3.0087 Y 713.7817 Z 0.0000
G01 X 3.7825 Y 713.8607 Z 0.0000
G00 Z 5.0000

(End cutting path id: path102)


(Start cutting path id: path102)
(Change tool to Default tool)

G00 Z 5.0000
G00 X 2.5169 Y 714.8377

G01 Z 0.0000 F 100.0000(Penetrate)
G01 X 2.0842 Y 715.0147 Z 0.0000 F 400.0000
G01 X 1.7249 Y 715.3097 Z 0.0000
G01 X 1.4387 Y 715.7237 Z 0.0000
G01 X 1.2209 Y 716.2647 Z 0.0000
G01 X 1.0652 Y 716.9427 Z 0.0000
G01 X 0.9719 Y 717.7577 Z 0.0000
G01 X 0.9407 Y 718.7087 Z 0.0000
G01 X 0.9714 Y 719.6857 Z 0.0000
G01 X 1.0635 Y 720.5147 Z 0.0000
G01 X 1.2169 Y 721.1957 Z 0.0000
G01 X 1.4317 Y 721.7287 Z 0.0000
G01 X 1.7174 Y 722.1307 Z 0.0000
G01 X 2.0822 Y 722.4177 Z 0.0000
G01 X 2.5264 Y 722.5897 Z 0.0000
G01 X 3.0497 Y 722.6467 Z 0.0000
G01 X 3.5600 Y 722.5887 Z 0.0000
G01 X 3.9928 Y 722.4137 Z 0.0000
G01 X 4.3480 Y 722.1227 Z 0.0000
G01 X 4.6258 Y 721.7147 Z 0.0000
G01 X 4.8349 Y 721.1777 Z 0.0000
G01 X 4.9843 Y 720.4977 Z 0.0000
G01 X 5.0739 Y 719.6747 Z 0.0000
G01 X 5.1038 Y 718.7087 Z 0.0000
G01 X 5.0724 Y 717.7747 Z 0.0000
G01 X 4.9783 Y 716.9687 Z 0.0000
G01 X 4.8214 Y 716.2917 Z 0.0000
G01 X 4.6018 Y 715.7447 Z 0.0000
G01 X 4.3152 Y 715.3217 Z 0.0000
G01 X 3.9565 Y 715.0197 Z 0.0000
G01 X 3.5257 Y 714.8387 Z 0.0000
G01 X 3.0227 Y 714.7787 Z 0.0000
G01 X 2.5169 Y 714.8377 Z 0.0000
G00 Z 5.0000

(End cutting path id: path102)


(Start cutting path id: path102)
(Change tool to Default tool)

G00 Z 5.0000
G00 X -4.6104 Y 714.5637

G01 Z 0.0000 F 100.0000(Penetrate)
G01 X -4.5540 Y 715.2067 Z 0.0000 F 400.0000
G01 X -4.4599 Y 715.8387 Z 0.0000
G01 X -4.3282 Y 716.4597 Z 0.0000
G01 X -4.1584 Y 717.0777 Z 0.0000
G01 X -3.9510 Y 717.6997 Z 0.0000
G01 X -3.7059 Y 718.3257 Z 0.0000
G01 X -3.4232 Y 718.9557 Z 0.0000
G01 X -3.0674 Y 719.6497 Z 0.0000
G01 X -2.6040 Y 720.4637 Z 0.0000
G01 X -2.0329 Y 721.3987 Z 0.0000
G01 X -1.3542 Y 722.4547 Z 0.0000
G01 X -1.3542 Y 723.4447 Z 0.0000
G01 X -7.6672 Y 723.4447 Z 0.0000
G01 X -7.6672 Y 722.4067 Z 0.0000
G01 X -2.5342 Y 722.4067 Z 0.0000
G01 X -3.3777 Y 721.1297 Z 0.0000
G01 X -4.0912 Y 719.9277 Z 0.0000
G01 X -4.6747 Y 718.8037 Z 0.0000
G01 X -5.1282 Y 717.7557 Z 0.0000
G01 X -5.4677 Y 716.7577 Z 0.0000
G01 X -5.7102 Y 715.7847 Z 0.0000
G01 X -5.8557 Y 714.8347 Z 0.0000
G01 X -5.9042 Y 713.9087 Z 0.0000
G01 X -4.6292 Y 713.9087 Z 0.0000
G01 X -4.6104 Y 714.5637 Z 0.0000
G00 Z 5.0000

(End cutting path id: path102)


(Start cutting path id: path102)
(Change tool to Default tool)

G00 Z 5.0000
G00 X -3.6678 Y 663.8357

G01 Z 0.0000 F 100.0000(Penetrate)
G01 X -3.0625 Y 664.0007 Z 0.0000 F 400.0000
G01 X -2.5353 Y 664.2747 Z 0.0000
G01 X -2.0862 Y 664.6587 Z 0.0000
G01 X -1.7270 Y 665.1377 Z 0.0000
G01 X -1.4705 Y 665.6967 Z 0.0000
G01 X -1.3165 Y 666.3357 Z 0.0000
G01 X -1.2652 Y 667.0547 Z 0.0000
G01 X -1.3138 Y 667.7197 Z 0.0000
G01 X -1.4595 Y 668.3137 Z 0.0000
G01 X -1.7023 Y 668.8357 Z 0.0000
G01 X -2.0422 Y 669.2857 Z 0.0000
G01 X -2.4644 Y 669.6497 Z 0.0000
G01 X -2.9550 Y 669.9097 Z 0.0000
G01 X -3.5139 Y 670.0657 Z 0.0000
G01 X -4.1412 Y 670.1167 Z 0.0000
G01 X -4.5198 Y 670.0967 Z 0.0000
G01 X -4.8765 Y 670.0367 Z 0.0000
G01 X -5.2113 Y 669.9357 Z 0.0000
G01 X -5.5242 Y 669.7937 Z 0.0000
G01 X -5.8092 Y 669.6147 Z 0.0000
G01 X -6.0602 Y 669.3987 Z 0.0000
G01 X -6.2772 Y 669.1457 Z 0.0000
G01 X -6.4602 Y 668.8547 Z 0.0000
G01 X -6.4244 Y 669.7227 Z 0.0000
G01 X -6.3170 Y 670.4817 Z 0.0000
G01 X -6.1379 Y 671.1317 Z 0.0000
G01 X -5.8872 Y 671.6727 Z 0.0000
G01 X -5.5712 Y 672.0997 Z 0.0000
G01 X -5.1962 Y 672.4037 Z 0.0000
G01 X -4.7622 Y 672.5867 Z 0.0000
G01 X -4.2692 Y 672.6467 Z 0.0000
G01 X -3.7157 Y 672.5747 Z 0.0000
G01 X -3.2690 Y 672.3557 Z 0.0000
G01 X -2.9292 Y 671.9917 Z 0.0000
G01 X -2.6962 Y 671.4807 Z 0.0000
G01 X -1.5302 Y 671.6907 Z 0.0000
G01 X -1.9117 Y 672.5427 Z 0.0000
G01 X -2.4932 Y 673.1507 Z 0.0000
G01 X -3.2747 Y 673.5157 Z 0.0000
G01 X -4.2562 Y 673.6367 Z 0.0000
G01 X -5.0297 Y 673.5537 Z 0.0000
G01 X -5.7092 Y 673.3037 Z 0.0000
G01 X -6.2947 Y 672.8877 Z 0.0000
G01 X -6.7862 Y 672.3037 Z 0.0000
G01 X -7.1747 Y 671.5657 Z 0.0000
G01 X -7.4522 Y 670.6837 Z 0.0000
G01 X -7.6187 Y 669.6567 Z 0.0000
G01 X -7.6742 Y 668.4857 Z 0.0000
G01 X -7.6209 Y 667.4047 Z 0.0000
G01 X -7.4607 Y 666.4607 Z 0.0000
G01 X -7.1939 Y 665.6537 Z 0.0000
G01 X -6.8202 Y 664.9847 Z 0.0000
G01 X -6.3453 Y 664.4577 Z 0.0000
G01 X -5.7755 Y 664.0817 Z 0.0000
G01 X -5.1108 Y 663.8567 Z 0.0000
G01 X -4.3512 Y 663.7817 Z 0.0000
G01 X -3.6678 Y 663.8357 Z 0.0000
G00 Z 5.0000

(End cutting path id: path102)


(Start cutting path id: path102)
(Change tool to Default tool)

G00 Z 5.0000
G00 X -4.7994 Y 664.8087

G01 Z 0.0000 F 100.0000(Penetrate)
G01 X -5.1690 Y 664.9417 Z 0.0000 F 400.0000
G01 X -5.4999 Y 665.1627 Z 0.0000
G01 X -5.7922 Y 665.4737 Z 0.0000
G01 X -6.0311 Y 665.8527 Z 0.0000
G01 X -6.2017 Y 666.2827 Z 0.0000
G01 X -6.3041 Y 666.7627 Z 0.0000
G01 X -6.3382 Y 667.2937 Z 0.0000
G01 X -6.3054 Y 667.7087 Z 0.0000
G01 X -6.2070 Y 668.0777 Z 0.0000
G01 X -6.0429 Y 668.3987 Z 0.0000
G01 X -5.8132 Y 668.6727 Z 0.0000
G01 X -5.5297 Y 668.8927 Z 0.0000
G01 X -5.2050 Y 669.0487 Z 0.0000
G01 X -4.8392 Y 669.1427 Z 0.0000
G01 X -4.4322 Y 669.1737 Z 0.0000
G01 X -4.0028 Y 669.1387 Z 0.0000
G01 X -3.6235 Y 669.0327 Z 0.0000
G01 X -3.2943 Y 668.8557 Z 0.0000
G01 X -3.0152 Y 668.6077 Z 0.0000
G01 X -2.7925 Y 668.2957 Z 0.0000
G01 X -2.6335 Y 667.9237 Z 0.0000
G01 X -2.5380 Y 667.4917 Z 0.0000
G01 X -2.5062 Y 667.0007 Z 0.0000
G01 X -2.5376 Y 666.5067 Z 0.0000
G01 X -2.6317 Y 666.0687 Z 0.0000
G01 X -2.7886 Y 665.6867 Z 0.0000
G01 X -3.0082 Y 665.3607 Z 0.0000
G01 X -3.2829 Y 665.0997 Z 0.0000
G01 X -3.6050 Y 664.9137 Z 0.0000
G01 X -3.9744 Y 664.8017 Z 0.0000
G01 X -4.3912 Y 664.7647 Z 0.0000
G01 X -4.7994 Y 664.8087 Z 0.0000
G00 Z 5.0000

(End cutting path id: path102)


(Start cutting path id: path102)
(Change tool to Default tool)

G00 Z 5.0000
G00 X 3.6672 Y 663.8357

G01 Z 0.0000 F 100.0000(Penetrate)
G01 X 4.3338 Y 663.9977 Z 0.0000 F 400.0000
G01 X 4.9133 Y 664.2677 Z 0.0000
G01 X 5.4058 Y 664.6457 Z 0.0000
G01 X 5.7991 Y 665.1177 Z 0.0000
G01 X 6.0800 Y 665.6707 Z 0.0000
G01 X 6.2486 Y 666.3037 Z 0.0000
G01 X 6.3048 Y 667.0177 Z 0.0000
G01 X 6.2524 Y 667.6477 Z 0.0000
G01 X 6.0953 Y 668.2167 Z 0.0000
G01 X 5.8334 Y 668.7217 Z 0.0000
G01 X 5.4668 Y 669.1647 Z 0.0000
G01 X 5.0124 Y 669.5257 Z 0.0000
G01 X 4.4863 Y 669.7827 Z 0.0000
G01 X 3.8884 Y 669.9377 Z 0.0000
G01 X 3.2187 Y 669.9887 Z 0.0000
G01 X 2.6529 Y 669.9507 Z 0.0000
G01 X 2.1355 Y 669.8367 Z 0.0000
G01 X 1.6664 Y 669.6457 Z 0.0000
G01 X 1.2457 Y 669.3787 Z 0.0000
G01 X 1.4287 Y 672.4067 Z 0.0000
G01 X 5.7488 Y 672.4067 Z 0.0000
G01 X 5.7488 Y 673.4447 Z 0.0000
G01 X 0.3167 Y 673.4447 Z 0.0000
G01 X -0.0023 Y 668.3077 Z 0.0000
G01 X 1.1917 Y 668.3077 Z 0.0000
G01 X 1.4052 Y 668.4797 Z 0.0000
G01 X 1.6187 Y 668.6257 Z 0.0000
G01 X 1.8322 Y 668.7447 Z 0.0000
G01 X 2.0457 Y 668.8357 Z 0.0000
G01 X 2.2639 Y 668.9047 Z 0.0000
G01 X 2.4905 Y 668.9527 Z 0.0000
G01 X 2.7254 Y 668.9827 Z 0.0000
G01 X 2.9687 Y 668.9917 Z 0.0000
G01 X 3.4189 Y 668.9577 Z 0.0000
G01 X 3.8203 Y 668.8537 Z 0.0000
G01 X 4.1729 Y 668.6807 Z 0.0000
G01 X 4.4768 Y 668.4397 Z 0.0000
G01 X 4.7218 Y 668.1417 Z 0.0000
G01 X 4.8968 Y 667.8007 Z 0.0000
G01 X 5.0018 Y 667.4167 Z 0.0000
G01 X 5.0368 Y 666.9907 Z 0.0000
G01 X 5.0020 Y 666.5017 Z 0.0000
G01 X 4.8978 Y 666.0687 Z 0.0000
G01 X 4.7240 Y 665.6907 Z 0.0000
G01 X 4.4808 Y 665.3687 Z 0.0000
G01 X 4.1760 Y 665.1097 Z 0.0000
G01 X 3.8178 Y 664.9257 Z 0.0000
G01 X 3.4060 Y 664.8147 Z 0.0000
G01 X 2.9407 Y 664.7787 Z 0.0000
G01 X 2.2166 Y 664.8667 Z 0.0000
G01 X 1.6440 Y 665.1327 Z 0.0000
G01 X 1.2231 Y 665.5757 Z 0.0000
G01 X 0.9537 Y 666.1967 Z 0.0000
G01 X -0.2803 Y 666.0547 Z 0.0000
G01 X -0.1341 Y 665.5337 Z 0.0000
G01 X 0.0875 Y 665.0787 Z 0.0000
G01 X 0.3844 Y 664.6887 Z 0.0000
G01 X 0.7567 Y 664.3647 Z 0.0000
G01 X 1.1994 Y 664.1087 Z 0.0000
G01 X 1.7065 Y 663.9267 Z 0.0000
G01 X 2.2779 Y 663.8177 Z 0.0000
G01 X 2.9137 Y 663.7817 Z 0.0000
G01 X 3.6672 Y 663.8357 Z 0.0000
G00 Z 5.0000

(End cutting path id: path102)


(Start cutting path id: path102)
(Change tool to Default tool)

G00 Z 5.0000
G00 X 3.7825 Y 613.8607

G01 Z 0.0000 F 100.0000(Penetrate)
G01 X 4.4558 Y 614.0977 Z 0.0000 F 400.0000
G01 X 5.0285 Y 614.4927 Z 0.0000
G01 X 5.5008 Y 615.0457 Z 0.0000
G01 X 5.8700 Y 615.7487 Z 0.0000
G01 X 6.1338 Y 616.5937 Z 0.0000
G01 X 6.2920 Y 617.5807 Z 0.0000
G01 X 6.3448 Y 618.7087 Z 0.0000
G01 X 6.2945 Y 619.8547 Z 0.0000
G01 X 6.1438 Y 620.8497 Z 0.0000
G01 X 5.8925 Y 621.6967 Z 0.0000
G01 X 5.5408 Y 622.3927 Z 0.0000
G01 X 5.0840 Y 622.9377 Z 0.0000
G01 X 4.5165 Y 623.3257 Z 0.0000
G01 X 3.8385 Y 623.5597 Z 0.0000
G01 X 3.0497 Y 623.6367 Z 0.0000
G01 X 2.2400 Y 623.5607 Z 0.0000
G01 X 1.5467 Y 623.3297 Z 0.0000
G01 X 0.9700 Y 622.9447 Z 0.0000
G01 X 0.5097 Y 622.4057 Z 0.0000
G01 X 0.1584 Y 621.7137 Z 0.0000
G01 X -0.0925 Y 620.8667 Z 0.0000
G01 X -0.2431 Y 619.8657 Z 0.0000
G01 X -0.2933 Y 618.7087 Z 0.0000
G01 X -0.2416 Y 617.5747 Z 0.0000
G01 X -0.0865 Y 616.5847 Z 0.0000
G01 X 0.1719 Y 615.7397 Z 0.0000
G01 X 0.5337 Y 615.0387 Z 0.0000
G01 X 0.9986 Y 614.4887 Z 0.0000
G01 X 1.5660 Y 614.0957 Z 0.0000
G01 X 2.2361 Y 613.8597 Z 0.0000
G01 X 3.0087 Y 613.7817 Z 0.0000
G01 X 3.7825 Y 613.8607 Z 0.0000
G00 Z 5.0000

(End cutting path id: path102)


(Start cutting path id: path102)
(Change tool to Default tool)

G00 Z 5.0000
G00 X 2.5169 Y 614.8377

G01 Z 0.0000 F 100.0000(Penetrate)
G01 X 2.0842 Y 615.0147 Z 0.0000 F 400.0000
G01 X 1.7249 Y 615.3097 Z 0.0000
G01 X 1.4387 Y 615.7237 Z 0.0000
G01 X 1.2209 Y 616.2647 Z 0.0000
G01 X 1.0652 Y 616.9427 Z 0.0000
G01 X 0.9719 Y 617.7577 Z 0.0000
G01 X 0.9407 Y 618.7087 Z 0.0000
G01 X 0.9714 Y 619.6857 Z 0.0000
G01 X 1.0635 Y 620.5147 Z 0.0000
G01 X 1.2169 Y 621.1957 Z 0.0000
G01 X 1.4317 Y 621.7287 Z 0.0000
G01 X 1.7174 Y 622.1307 Z 0.0000
G01 X 2.0822 Y 622.4177 Z 0.0000
G01 X 2.5264 Y 622.5897 Z 0.0000
G01 X 3.0497 Y 622.6467 Z 0.0000
G01 X 3.5600 Y 622.5887 Z 0.0000
G01 X 3.9928 Y 622.4137 Z 0.0000
G01 X 4.3480 Y 622.1227 Z 0.0000
G01 X 4.6258 Y 621.7147 Z 0.0000
G01 X 4.8349 Y 621.1777 Z 0.0000
G01 X 4.9843 Y 620.4977 Z 0.0000
G01 X 5.0739 Y 619.6747 Z 0.0000
G01 X 5.1038 Y 618.7087 Z 0.0000
G01 X 5.0724 Y 617.7747 Z 0.0000
G01 X 4.9783 Y 616.9687 Z 0.0000
G01 X 4.8214 Y 616.2917 Z 0.0000
G01 X 4.6018 Y 615.7447 Z 0.0000
G01 X 4.3152 Y 615.3217 Z 0.0000
G01 X 3.9565 Y 615.0197 Z 0.0000
G01 X 3.5257 Y 614.8387 Z 0.0000
G01 X 3.0227 Y 614.7787 Z 0.0000
G01 X 2.5169 Y 614.8377 Z 0.0000
G00 Z 5.0000

(End cutting path id: path102)


(Start cutting path id: path102)
(Change tool to Default tool)

G00 Z 5.0000
G00 X -3.6678 Y 613.8357

G01 Z 0.0000 F 100.0000(Penetrate)
G01 X -3.0625 Y 614.0007 Z 0.0000 F 400.0000
G01 X -2.5353 Y 614.2747 Z 0.0000
G01 X -2.0862 Y 614.6587 Z 0.0000
G01 X -1.7270 Y 615.1377 Z 0.0000
G01 X -1.4705 Y 615.6967 Z 0.0000
G01 X -1.3165 Y 616.3357 Z 0.0000
G01 X -1.2652 Y 617.0547 Z 0.0000
G01 X -1.3138 Y 617.7197 Z 0.0000
G01 X -1.4595 Y 618.3137 Z 0.0000
G01 X -1.7023 Y 618.8357 Z 0.0000
G01 X -2.0422 Y 619.2857 Z 0.0000
G01 X -2.4644 Y 619.6497 Z 0.0000
G01 X -2.9550 Y 619.9097 Z 0.0000
G01 X -3.5139 Y 620.0657 Z 0.0000
G01 X -4.1412 Y 620.1167 Z 0.0000
G01 X -4.5198 Y 620.0967 Z 0.0000
G01 X -4.8765 Y 620.0367 Z 0.0000
G01 X -5.2113 Y 619.9357 Z 0.0000
G01 X -5.5242 Y 619.7937 Z 0.0000
G01 X -5.8092 Y 619.6147 Z 0.0000
G01 X -6.0602 Y 619.3987 Z 0.0000
G01 X -6.2772 Y 619.1457 Z 0.0000
G01 X -6.4602 Y 618.8547 Z 0.0000
G01 X -6.4244 Y 619.7227 Z 0.0000
G01 X -6.3170 Y 620.4817 Z 0.0000
G01 X -6.1379 Y 621.1317 Z 0.0000
G01 X -5.8872 Y 621.6727 Z 0.0000
G01 X -5.5712 Y 622.0997 Z 0.0000
G01 X -5.1962 Y 622.4037 Z 0.0000
G01 X -4.7622 Y 622.5867 Z 0.0000
G01 X -4.2692 Y 622.6467 Z 0.0000
G01 X -3.7157 Y 622.5747 Z 0.0000
G01 X -3.2690 Y 622.3557 Z 0.0000
G01 X -2.9292 Y 621.9917 Z 0.0000
G01 X -2.6962 Y 621.4807 Z 0.0000
G01 X -1.5302 Y 621.6907 Z 0.0000
G01 X -1.9117 Y 622.5427 Z 0.0000
G01 X -2.4932 Y 623.1507 Z 0.0000
G01 X -3.2747 Y 623.5157 Z 0.0000
G01 X -4.2562 Y 623.6367 Z 0.0000
G01 X -5.0297 Y 623.5537 Z 0.0000
G01 X -5.7092 Y 623.3037 Z 0.0000
G01 X -6.2947 Y 622.8877 Z 0.0000
G01 X -6.7862 Y 622.3037 Z 0.0000
G01 X -7.1747 Y 621.5657 Z 0.0000
G01 X -7.4522 Y 620.6837 Z 0.0000
G01 X -7.6187 Y 619.6567 Z 0.0000
G01 X -7.6742 Y 618.4857 Z 0.0000
G01 X -7.6209 Y 617.4047 Z 0.0000
G01 X -7.4607 Y 616.4607 Z 0.0000
G01 X -7.1939 Y 615.6537 Z 0.0000
G01 X -6.8202 Y 614.9847 Z 0.0000
G01 X -6.3453 Y 614.4577 Z 0.0000
G01 X -5.7755 Y 614.0817 Z 0.0000
G01 X -5.1108 Y 613.8567 Z 0.0000
G01 X -4.3512 Y 613.7817 Z 0.0000
G01 X -3.6678 Y 613.8357 Z 0.0000
G00 Z 5.0000

(End cutting path id: path102)


(Start cutting path id: path102)
(Change tool to Default tool)

G00 Z 5.0000
G00 X -4.7994 Y 614.8087

G01 Z 0.0000 F 100.0000(Penetrate)
G01 X -5.1690 Y 614.9417 Z 0.0000 F 400.0000
G01 X -5.4999 Y 615.1627 Z 0.0000
G01 X -5.7922 Y 615.4737 Z 0.0000
G01 X -6.0311 Y 615.8527 Z 0.0000
G01 X -6.2017 Y 616.2827 Z 0.0000
G01 X -6.3041 Y 616.7627 Z 0.0000
G01 X -6.3382 Y 617.2937 Z 0.0000
G01 X -6.3054 Y 617.7087 Z 0.0000
G01 X -6.2070 Y 618.0777 Z 0.0000
G01 X -6.0429 Y 618.3987 Z 0.0000
G01 X -5.8132 Y 618.6727 Z 0.0000
G01 X -5.5297 Y 618.8927 Z 0.0000
G01 X -5.2050 Y 619.0487 Z 0.0000
G01 X -4.8392 Y 619.1427 Z 0.0000
G01 X -4.4322 Y 619.1737 Z 0.0000
G01 X -4.0028 Y 619.1387 Z 0.0000
G01 X -3.6235 Y 619.0327 Z 0.0000
G01 X -3.2943 Y 618.8557 Z 0.0000
G01 X -3.0152 Y 618.6077 Z 0.0000
G01 X -2.7925 Y 618.2957 Z 0.0000
G01 X -2.6335 Y 617.9237 Z 0.0000
G01 X -2.5380 Y 617.4917 Z 0.0000
G01 X -2.5062 Y 617.0007 Z 0.0000
G01 X -2.5376 Y 616.5067 Z 0.0000
G01 X -2.6317 Y 616.0687 Z 0.0000
G01 X -2.7886 Y 615.6867 Z 0.0000
G01 X -3.0082 Y 615.3607 Z 0.0000
G01 X -3.2829 Y 615.0997 Z 0.0000
G01 X -3.6050 Y 614.9137 Z 0.0000
G01 X -3.9744 Y 614.8017 Z 0.0000
G01 X -4.3912 Y 614.7647 Z 0.0000
G01 X -4.7994 Y 614.8087 Z 0.0000
G00 Z 5.0000

(End cutting path id: path102)


(Start cutting path id: path102)
(Change tool to Default tool)

G00 Z 5.0000
G00 X 3.6672 Y 563.9287

G01 Z 0.0000 F 100.0000(Penetrate)
G01 X 4.3338 Y 564.0907 Z 0.0000 F 400.0000
G01 X 4.9133 Y 564.3607 Z 0.0000
G01 X 5.4058 Y 564.7387 Z 0.0000
G01 X 5.7991 Y 565.2117 Z 0.0000
G01 X 6.0800 Y 565.7647 Z 0.0000
G01 X 6.2486 Y 566.3977 Z 0.0000
G01 X 6.3048 Y 567.1107 Z 0.0000
G01 X 6.2524 Y 567.7417 Z 0.0000
G01 X 6.0953 Y 568.3097 Z 0.0000
G01 X 5.8334 Y 568.8157 Z 0.0000
G01 X 5.4668 Y 569.2587 Z 0.0000
G01 X 5.0124 Y 569.6197 Z 0.0000
G01 X 4.4863 Y 569.8767 Z 0.0000
G01 X 3.8884 Y 570.0317 Z 0.0000
G01 X 3.2187 Y 570.0827 Z 0.0000
G01 X 2.6529 Y 570.0447 Z 0.0000
G01 X 2.1355 Y 569.9307 Z 0.0000
G01 X 1.6664 Y 569.7397 Z 0.0000
G01 X 1.2457 Y 569.4727 Z 0.0000
G01 X 1.4287 Y 572.5007 Z 0.0000
G01 X 5.7488 Y 572.5007 Z 0.0000
G01 X 5.7488 Y 573.5387 Z 0.0000
G01 X 0.3167 Y 573.5387 Z 0.0000
G01 X -0.0023 Y 568.4007 Z 0.0000
G01 X 1.1917 Y 568.4007 Z 0.0000
G01 X 1.4052 Y 568.5737 Z 0.0000
G01 X 1.6187 Y 568.7197 Z 0.0000
G01 X 1.8322 Y 568.8387 Z 0.0000
G01 X 2.0457 Y 568.9297 Z 0.0000
G01 X 2.2639 Y 568.9977 Z 0.0000
G01 X 2.4905 Y 569.0467 Z 0.0000
G01 X 2.7254 Y 569.0757 Z 0.0000
G01 X 2.9687 Y 569.0857 Z 0.0000
G01 X 3.4189 Y 569.0517 Z 0.0000
G01 X 3.8203 Y 568.9477 Z 0.0000
G01 X 4.1729 Y 568.7747 Z 0.0000
G01 X 4.4768 Y 568.5327 Z 0.0000
G01 X 4.7218 Y 568.2347 Z 0.0000
G01 X 4.8968 Y 567.8947 Z 0.0000
G01 X 5.0018 Y 567.5107 Z 0.0000
G01 X 5.0368 Y 567.0837 Z 0.0000
G01 X 5.0020 Y 566.5957 Z 0.0000
G01 X 4.8978 Y 566.1627 Z 0.0000
G01 X 4.7240 Y 565.7847 Z 0.0000
G01 X 4.4808 Y 565.4617 Z 0.0000
G01 X 4.1760 Y 565.2037 Z 0.0000
G01 X 3.8178 Y 565.0197 Z 0.0000
G01 X 3.4060 Y 564.9087 Z 0.0000
G01 X 2.9407 Y 564.8717 Z 0.0000
G01 X 2.2166 Y 564.9607 Z 0.0000
G01 X 1.6440 Y 565.2267 Z 0.0000
G01 X 1.2231 Y 565.6697 Z 0.0000
G01 X 0.9537 Y 566.2897 Z 0.0000
G01 X -0.2803 Y 566.1477 Z 0.0000
G01 X -0.1341 Y 565.6277 Z 0.0000
G01 X 0.0875 Y 565.1727 Z 0.0000
G01 X 0.3844 Y 564.7827 Z 0.0000
G01 X 0.7567 Y 564.4577 Z 0.0000
G01 X 1.1994 Y 564.2027 Z 0.0000
G01 X 1.7065 Y 564.0207 Z 0.0000
G01 X 2.2779 Y 563.9117 Z 0.0000
G01 X 2.9137 Y 563.8747 Z 0.0000
G01 X 3.6672 Y 563.9287 Z 0.0000
G00 Z 5.0000

(End cutting path id: path102)


(Start cutting path id: path102)
(Change tool to Default tool)

G00 Z 5.0000
G00 X -3.8757 Y 563.9287

G01 Z 0.0000 F 100.0000(Penetrate)
G01 X -3.2092 Y 564.0907 Z 0.0000 F 400.0000
G01 X -2.6297 Y 564.3607 Z 0.0000
G01 X -2.1372 Y 564.7387 Z 0.0000
G01 X -1.7439 Y 565.2117 Z 0.0000
G01 X -1.4630 Y 565.7647 Z 0.0000
G01 X -1.2944 Y 566.3977 Z 0.0000
G01 X -1.2382 Y 567.1107 Z 0.0000
G01 X -1.2906 Y 567.7417 Z 0.0000
G01 X -1.4477 Y 568.3097 Z 0.0000
G01 X -1.7096 Y 568.8157 Z 0.0000
G01 X -2.0762 Y 569.2587 Z 0.0000
G01 X -2.5306 Y 569.6197 Z 0.0000
G01 X -3.0567 Y 569.8767 Z 0.0000
G01 X -3.6546 Y 570.0317 Z 0.0000
G01 X -4.3242 Y 570.0827 Z 0.0000
G01 X -4.8900 Y 570.0447 Z 0.0000
G01 X -5.4075 Y 569.9307 Z 0.0000
G01 X -5.8765 Y 569.7397 Z 0.0000
G01 X -6.2972 Y 569.4727 Z 0.0000
G01 X -6.1142 Y 572.5007 Z 0.0000
G01 X -1.7942 Y 572.5007 Z 0.0000
G01 X -1.7942 Y 573.5387 Z 0.0000
G01 X -7.2262 Y 573.5387 Z 0.0000
G01 X -7.5452 Y 568.4007 Z 0.0000
G01 X -6.3512 Y 568.4007 Z 0.0000
G01 X -6.1377 Y 568.5737 Z 0.0000
G01 X -5.9242 Y 568.7197 Z 0.0000
G01 X -5.7107 Y 568.8387 Z 0.0000
G01 X -5.4972 Y 568.9297 Z 0.0000
G01 X -5.2790 Y 568.9977 Z 0.0000
G01 X -5.0525 Y 569.0467 Z 0.0000
G01 X -4.8175 Y 569.0757 Z 0.0000
G01 X -4.5742 Y 569.0857 Z 0.0000
G01 X -4.1241 Y 569.0517 Z 0.0000
G01 X -3.7227 Y 568.9477 Z 0.0000
G01 X -3.3701 Y 568.7747 Z 0.0000
G01 X -3.0662 Y 568.5327 Z 0.0000
G01 X -2.8212 Y 568.2347 Z 0.0000
G01 X -2.6462 Y 567.8947 Z 0.0000
G01 X -2.5412 Y 567.5107 Z 0.0000
G01 X -2.5062 Y 567.0837 Z 0.0000
G01 X -2.5410 Y 566.5957 Z 0.0000
G01 X -2.6452 Y 566.1627 Z 0.0000
G01 X -2.8190 Y 565.7847 Z 0.0000
G01 X -3.0622 Y 565.4617 Z 0.0000
G01 X -3.3670 Y 565.2037 Z 0.0000
G01 X -3.7252 Y 565.0197 Z 0.0000
G01 X -4.1370 Y 564.9087 Z 0.0000
G01 X -4.6022 Y 564.8717 Z 0.0000
G01 X -5.3264 Y 564.9607 Z 0.0000
G01 X -5.8990 Y 565.2267 Z 0.0000
G01 X -6.3199 Y 565.6697 Z 0.0000
G01 X -6.5892 Y 566.2897 Z 0.0000
G01 X -7.8232 Y 566.1477 Z 0.0000
G01 X -7.6770 Y 565.6277 Z 0.0000
G01 X -7.4555 Y 565.1727 Z 0.0000
G01 X -7.1585 Y 564.7827 Z 0.0000
G01 X -6.7862 Y 564.4577 Z 0.0000
G01 X -6.3435 Y 564.2027 Z 0.0000
G01 X -5.8365 Y 564.0207 Z 0.0000
G01 X -5.2650 Y 563.9117 Z 0.0000
G01 X -4.6292 Y 563.8747 Z 0.0000
G01 X -3.8757 Y 563.9287 Z 0.0000
G00 Z 5.0000

(End cutting path id: path102)


(Start cutting path id: path102)
(Change tool to Default tool)

G00 Z 5.0000
G00 X 3.7825 Y 513.8607

G01 Z 0.0000 F 100.0000(Penetrate)
G01 X 4.4558 Y 514.0977 Z 0.0000 F 400.0000
G01 X 5.0285 Y 514.4927 Z 0.0000
G01 X 5.5008 Y 515.0457 Z 0.0000
G01 X 5.8700 Y 515.7487 Z 0.0000
G01 X 6.1338 Y 516.5937 Z 0.0000
G01 X 6.2920 Y 517.5807 Z 0.0000
G01 X 6.3448 Y 518.7087 Z 0.0000
G01 X 6.2945 Y 519.8547 Z 0.0000
G01 X 6.1438 Y 520.8497 Z 0.0000
G01 X 5.8925 Y 521.6967 Z 0.0000
G01 X 5.5408 Y 522.3927 Z 0.0000
G01 X 5.0840 Y 522.9377 Z 0.0000
G01 X 4.5165 Y 523.3257 Z 0.0000
G01 X 3.8385 Y 523.5597 Z 0.0000
G01 X 3.0497 Y 523.6367 Z 0.0000
G01 X 2.2400 Y 523.5607 Z 0.0000
G01 X 1.5467 Y 523.3297 Z 0.0000
G01 X 0.9700 Y 522.9447 Z 0.0000
G01 X 0.5097 Y 522.4057 Z 0.0000
G01 X 0.1584 Y 521.7137 Z 0.0000
G01 X -0.0925 Y 520.8667 Z 0.0000
G01 X -0.2431 Y 519.8657 Z 0.0000
G01 X -0.2933 Y 518.7087 Z 0.0000
G01 X -0.2416 Y 517.5747 Z 0.0000
G01 X -0.0865 Y 516.5847 Z 0.0000
G01 X 0.1719 Y 515.7397 Z 0.0000
G01 X 0.5337 Y 515.0387 Z 0.0000
G01 X 0.9986 Y 514.4887 Z 0.0000
G01 X 1.5660 Y 514.0957 Z 0.0000
G01 X 2.2361 Y 513.8597 Z 0.0000
G01 X 3.0087 Y 513.7817 Z 0.0000
G01 X 3.7825 Y 513.8607 Z 0.0000
G00 Z 5.0000

(End cutting path id: path102)


(Start cutting path id: path102)
(Change tool to Default tool)

G00 Z 5.0000
G00 X 2.5169 Y 514.8377

G01 Z 0.0000 F 100.0000(Penetrate)
G01 X 2.0842 Y 515.0147 Z 0.0000 F 400.0000
G01 X 1.7249 Y 515.3097 Z 0.0000
G01 X 1.4387 Y 515.7237 Z 0.0000
G01 X 1.2209 Y 516.2647 Z 0.0000
G01 X 1.0652 Y 516.9427 Z 0.0000
G01 X 0.9719 Y 517.7577 Z 0.0000
G01 X 0.9407 Y 518.7087 Z 0.0000
G01 X 0.9714 Y 519.6857 Z 0.0000
G01 X 1.0635 Y 520.5147 Z 0.0000
G01 X 1.2169 Y 521.1957 Z 0.0000
G01 X 1.4317 Y 521.7287 Z 0.0000
G01 X 1.7174 Y 522.1307 Z 0.0000
G01 X 2.0822 Y 522.4177 Z 0.0000
G01 X 2.5264 Y 522.5897 Z 0.0000
G01 X 3.0497 Y 522.6467 Z 0.0000
G01 X 3.5600 Y 522.5887 Z 0.0000
G01 X 3.9928 Y 522.4137 Z 0.0000
G01 X 4.3480 Y 522.1227 Z 0.0000
G01 X 4.6258 Y 521.7147 Z 0.0000
G01 X 4.8349 Y 521.1777 Z 0.0000
G01 X 4.9843 Y 520.4977 Z 0.0000
G01 X 5.0739 Y 519.6747 Z 0.0000
G01 X 5.1038 Y 518.7087 Z 0.0000
G01 X 5.0724 Y 517.7747 Z 0.0000
G01 X 4.9783 Y 516.9687 Z 0.0000
G01 X 4.8214 Y 516.2917 Z 0.0000
G01 X 4.6018 Y 515.7447 Z 0.0000
G01 X 4.3152 Y 515.3217 Z 0.0000
G01 X 3.9565 Y 515.0197 Z 0.0000
G01 X 3.5257 Y 514.8387 Z 0.0000
G01 X 3.0227 Y 514.7787 Z 0.0000
G01 X 2.5169 Y 514.8377 Z 0.0000
G00 Z 5.0000

(End cutting path id: path102)


(Start cutting path id: path102)
(Change tool to Default tool)

G00 Z 5.0000
G00 X -3.8757 Y 513.8357

G01 Z 0.0000 F 100.0000(Penetrate)
G01 X -3.2092 Y 513.9977 Z 0.0000 F 400.0000
G01 X -2.6297 Y 514.2677 Z 0.0000
G01 X -2.1372 Y 514.6457 Z 0.0000
G01 X -1.7439 Y 515.1177 Z 0.0000
G01 X -1.4630 Y 515.6707 Z 0.0000
G01 X -1.2944 Y 516.3037 Z 0.0000
G01 X -1.2382 Y 517.0177 Z 0.0000
G01 X -1.2906 Y 517.6477 Z 0.0000
G01 X -1.4477 Y 518.2167 Z 0.0000
G01 X -1.7096 Y 518.7217 Z 0.0000
G01 X -2.0762 Y 519.1647 Z 0.0000
G01 X -2.5306 Y 519.5257 Z 0.0000
G01 X -3.0567 Y 519.7827 Z 0.0000
G01 X -3.6546 Y 519.9377 Z 0.0000
G01 X -4.3242 Y 519.9887 Z 0.0000
G01 X -4.8900 Y 519.9507 Z 0.0000
G01 X -5.4075 Y 519.8367 Z 0.0000
G01 X -5.8765 Y 519.6457 Z 0.0000
G01 X -6.2972 Y 519.3787 Z 0.0000
G01 X -6.1142 Y 522.4067 Z 0.0000
G01 X -1.7942 Y 522.4067 Z 0.0000
G01 X -1.7942 Y 523.4447 Z 0.0000
G01 X -7.2262 Y 523.4447 Z 0.0000
G01 X -7.5452 Y 518.3077 Z 0.0000
G01 X -6.3512 Y 518.3077 Z 0.0000
G01 X -6.1377 Y 518.4797 Z 0.0000
G01 X -5.9242 Y 518.6257 Z 0.0000
G01 X -5.7107 Y 518.7447 Z 0.0000
G01 X -5.4972 Y 518.8357 Z 0.0000
G01 X -5.2790 Y 518.9047 Z 0.0000
G01 X -5.0525 Y 518.9527 Z 0.0000
G01 X -4.8175 Y 518.9827 Z 0.0000
G01 X -4.5742 Y 518.9917 Z 0.0000
G01 X -4.1241 Y 518.9577 Z 0.0000
G01 X -3.7227 Y 518.8537 Z 0.0000
G01 X -3.3701 Y 518.6807 Z 0.0000
G01 X -3.0662 Y 518.4397 Z 0.0000
G01 X -2.8212 Y 518.1417 Z 0.0000
G01 X -2.6462 Y 517.8007 Z 0.0000
G01 X -2.5412 Y 517.4167 Z 0.0000
G01 X -2.5062 Y 516.9907 Z 0.0000
G01 X -2.5410 Y 516.5017 Z 0.0000
G01 X -2.6452 Y 516.0687 Z 0.0000
G01 X -2.8190 Y 515.6907 Z 0.0000
G01 X -3.0622 Y 515.3687 Z 0.0000
G01 X -3.3670 Y 515.1097 Z 0.0000
G01 X -3.7252 Y 514.9257 Z 0.0000
G01 X -4.1370 Y 514.8147 Z 0.0000
G01 X -4.6022 Y 514.7787 Z 0.0000
G01 X -5.3264 Y 514.8667 Z 0.0000
G01 X -5.8990 Y 515.1327 Z 0.0000
G01 X -6.3199 Y 515.5757 Z 0.0000
G01 X -6.5892 Y 516.1967 Z 0.0000
G01 X -7.8232 Y 516.0547 Z 0.0000
G01 X -7.6770 Y 515.5337 Z 0.0000
G01 X -7.4555 Y 515.0787 Z 0.0000
G01 X -7.1585 Y 514.6887 Z 0.0000
G01 X -6.7862 Y 514.3647 Z 0.0000
G01 X -6.3435 Y 514.1087 Z 0.0000
G01 X -5.8365 Y 513.9267 Z 0.0000
G01 X -5.2650 Y 513.8177 Z 0.0000
G01 X -4.6292 Y 513.7817 Z 0.0000
G01 X -3.8757 Y 513.8357 Z 0.0000
G00 Z 5.0000

(End cutting path id: path102)


(Start cutting path id: path102)
(Change tool to Default tool)

G00 Z 5.0000
G00 X 3.6672 Y 463.9287

G01 Z 0.0000 F 100.0000(Penetrate)
G01 X 4.3338 Y 464.0907 Z 0.0000 F 400.0000
G01 X 4.9133 Y 464.3607 Z 0.0000
G01 X 5.4058 Y 464.7387 Z 0.0000
G01 X 5.7991 Y 465.2117 Z 0.0000
G01 X 6.0800 Y 465.7647 Z 0.0000
G01 X 6.2486 Y 466.3977 Z 0.0000
G01 X 6.3048 Y 467.1107 Z 0.0000
G01 X 6.2524 Y 467.7417 Z 0.0000
G01 X 6.0953 Y 468.3097 Z 0.0000
G01 X 5.8334 Y 468.8157 Z 0.0000
G01 X 5.4668 Y 469.2587 Z 0.0000
G01 X 5.0124 Y 469.6197 Z 0.0000
G01 X 4.4863 Y 469.8767 Z 0.0000
G01 X 3.8884 Y 470.0317 Z 0.0000
G01 X 3.2187 Y 470.0827 Z 0.0000
G01 X 2.6529 Y 470.0447 Z 0.0000
G01 X 2.1355 Y 469.9307 Z 0.0000
G01 X 1.6664 Y 469.7397 Z 0.0000
G01 X 1.2457 Y 469.4727 Z 0.0000
G01 X 1.4287 Y 472.5007 Z 0.0000
G01 X 5.7488 Y 472.5007 Z 0.0000
G01 X 5.7488 Y 473.5387 Z 0.0000
G01 X 0.3167 Y 473.5387 Z 0.0000
G01 X -0.0023 Y 468.4007 Z 0.0000
G01 X 1.1917 Y 468.4007 Z 0.0000
G01 X 1.4052 Y 468.5737 Z 0.0000
G01 X 1.6187 Y 468.7197 Z 0.0000
G01 X 1.8322 Y 468.8387 Z 0.0000
G01 X 2.0457 Y 468.9297 Z 0.0000
G01 X 2.2639 Y 468.9977 Z 0.0000
G01 X 2.4905 Y 469.0467 Z 0.0000
G01 X 2.7254 Y 469.0757 Z 0.0000
G01 X 2.9687 Y 469.0857 Z 0.0000
G01 X 3.4189 Y 469.0517 Z 0.0000
G01 X 3.8203 Y 468.9477 Z 0.0000
G01 X 4.1729 Y 468.7747 Z 0.0000
G01 X 4.4768 Y 468.5327 Z 0.0000
G01 X 4.7218 Y 468.2347 Z 0.0000
G01 X 4.8968 Y 467.8947 Z 0.0000
G01 X 5.0018 Y 467.5107 Z 0.0000
G01 X 5.0368 Y 467.0837 Z 0.0000
G01 X 5.0020 Y 466.5957 Z 0.0000
G01 X 4.8978 Y 466.1627 Z 0.0000
G01 X 4.7240 Y 465.7847 Z 0.0000
G01 X 4.4808 Y 465.4617 Z 0.0000
G01 X 4.1760 Y 465.2037 Z 0.0000
G01 X 3.8178 Y 465.0197 Z 0.0000
G01 X 3.4060 Y 464.9087 Z 0.0000
G01 X 2.9407 Y 464.8717 Z 0.0000
G01 X 2.2166 Y 464.9607 Z 0.0000
G01 X 1.6440 Y 465.2267 Z 0.0000
G01 X 1.2231 Y 465.6697 Z 0.0000
G01 X 0.9537 Y 466.2897 Z 0.0000
G01 X -0.2803 Y 466.1477 Z 0.0000
G01 X -0.1341 Y 465.6277 Z 0.0000
G01 X 0.0875 Y 465.1727 Z 0.0000
G01 X 0.3844 Y 464.7827 Z 0.0000
G01 X 0.7567 Y 464.4577 Z 0.0000
G01 X 1.1994 Y 464.2027 Z 0.0000
G01 X 1.7065 Y 464.0207 Z 0.0000
G01 X 2.2779 Y 463.9117 Z 0.0000
G01 X 2.9137 Y 463.8747 Z 0.0000
G01 X 3.6672 Y 463.9287 Z 0.0000
G00 Z 5.0000

(End cutting path id: path102)


(Start cutting path id: path102)
(Change tool to Default tool)

G00 Z 5.0000
G00 X -2.4052 Y 466.1757

G01 Z 0.0000 F 100.0000(Penetrate)
G01 X -1.0622 Y 466.1757 Z 0.0000 F 400.0000
G01 X -1.0622 Y 467.1387 Z 0.0000
G01 X -2.4052 Y 467.1387 Z 0.0000
G01 X -2.4052 Y 473.5387 Z 0.0000
G01 X -3.6872 Y 473.5387 Z 0.0000
G01 X -8.0602 Y 467.1217 Z 0.0000
G01 X -8.0602 Y 466.1757 Z 0.0000
G01 X -3.5582 Y 466.1757 Z 0.0000
G01 X -3.5582 Y 464.0027 Z 0.0000
G01 X -2.4052 Y 464.0027 Z 0.0000
G01 X -2.4052 Y 466.1757 Z 0.0000
G00 Z 5.0000

(End cutting path id: path102)


(Start cutting path id: path102)
(Change tool to Default tool)

G00 Z 5.0000
G00 X -6.9352 Y 467.1387

G01 Z 0.0000 F 100.0000(Penetrate)
G01 X -6.8272 Y 467.2737 Z 0.0000 F 400.0000
G01 X -6.4602 Y 467.7727 Z 0.0000
G01 X -4.0122 Y 471.3597 Z 0.0000
G01 X -3.9627 Y 471.4357 Z 0.0000
G01 X -3.9022 Y 471.5347 Z 0.0000
G01 X -3.8307 Y 471.6587 Z 0.0000
G01 X -3.7482 Y 471.8047 Z 0.0000
G01 X -3.6704 Y 471.9457 Z 0.0000
G01 X -3.6127 Y 472.0527 Z 0.0000
G01 X -3.5754 Y 472.1247 Z 0.0000
G01 X -3.5582 Y 472.1617 Z 0.0000
G01 X -3.5582 Y 467.1387 Z 0.0000
G01 X -6.9352 Y 467.1387 Z 0.0000
G00 Z 5.0000

(End cutting path id: path102)


(Start cutting path id: path102)
(Change tool to Default tool)

G00 Z 5.0000
G00 X 3.7825 Y 413.8607

G01 Z 0.0000 F 100.0000(Penetrate)
G01 X 4.4558 Y 414.0977 Z 0.0000 F 400.0000
G01 X 5.0285 Y 414.4927 Z 0.0000
G01 X 5.5008 Y 415.0457 Z 0.0000
G01 X 5.8700 Y 415.7487 Z 0.0000
G01 X 6.1338 Y 416.5937 Z 0.0000
G01 X 6.2920 Y 417.5807 Z 0.0000
G01 X 6.3448 Y 418.7087 Z 0.0000
G01 X 6.2945 Y 419.8547 Z 0.0000
G01 X 6.1438 Y 420.8497 Z 0.0000
G01 X 5.8925 Y 421.6967 Z 0.0000
G01 X 5.5408 Y 422.3927 Z 0.0000
G01 X 5.0840 Y 422.9377 Z 0.0000
G01 X 4.5165 Y 423.3257 Z 0.0000
G01 X 3.8385 Y 423.5597 Z 0.0000
G01 X 3.0497 Y 423.6367 Z 0.0000
G01 X 2.2400 Y 423.5607 Z 0.0000
G01 X 1.5467 Y 423.3297 Z 0.0000
G01 X 0.9700 Y 422.9447 Z 0.0000
G01 X 0.5097 Y 422.4057 Z 0.0000
G01 X 0.1584 Y 421.7137 Z 0.0000
G01 X -0.0925 Y 420.8667 Z 0.0000
G01 X -0.2431 Y 419.8657 Z 0.0000
G01 X -0.2933 Y 418.7087 Z 0.0000
G01 X -0.2416 Y 417.5747 Z 0.0000
G01 X -0.0865 Y 416.5847 Z 0.0000
G01 X 0.1719 Y 415.7397 Z 0.0000
G01 X 0.5337 Y 415.0387 Z 0.0000
G01 X 0.9986 Y 414.4887 Z 0.0000
G01 X 1.5660 Y 414.0957 Z 0.0000
G01 X 2.2361 Y 413.8597 Z 0.0000
G01 X 3.0087 Y 413.7817 Z 0.0000
G01 X 3.7825 Y 413.8607 Z 0.0000
G00 Z 5.0000

(End cutting path id: path102)


(Start cutting path id: path102)
(Change tool to Default tool)

G00 Z 5.0000
G00 X 2.5169 Y 414.8377

G01 Z 0.0000 F 100.0000(Penetrate)
G01 X 2.0842 Y 415.0147 Z 0.0000 F 400.0000
G01 X 1.7249 Y 415.3097 Z 0.0000
G01 X 1.4387 Y 415.7237 Z 0.0000
G01 X 1.2209 Y 416.2647 Z 0.0000
G01 X 1.0652 Y 416.9427 Z 0.0000
G01 X 0.9719 Y 417.7577 Z 0.0000
G01 X 0.9407 Y 418.7087 Z 0.0000
G01 X 0.9714 Y 419.6857 Z 0.0000
G01 X 1.0635 Y 420.5147 Z 0.0000
G01 X 1.2169 Y 421.1957 Z 0.0000
G01 X 1.4317 Y 421.7287 Z 0.0000
G01 X 1.7174 Y 422.1307 Z 0.0000
G01 X 2.0822 Y 422.4177 Z 0.0000
G01 X 2.5264 Y 422.5897 Z 0.0000
G01 X 3.0497 Y 422.6467 Z 0.0000
G01 X 3.5600 Y 422.5887 Z 0.0000
G01 X 3.9928 Y 422.4137 Z 0.0000
G01 X 4.3480 Y 422.1227 Z 0.0000
G01 X 4.6258 Y 421.7147 Z 0.0000
G01 X 4.8349 Y 421.1777 Z 0.0000
G01 X 4.9843 Y 420.4977 Z 0.0000
G01 X 5.0739 Y 419.6747 Z 0.0000
G01 X 5.1038 Y 418.7087 Z 0.0000
G01 X 5.0724 Y 417.7747 Z 0.0000
G01 X 4.9783 Y 416.9687 Z 0.0000
G01 X 4.8214 Y 416.2917 Z 0.0000
G01 X 4.6018 Y 415.7447 Z 0.0000
G01 X 4.3152 Y 415.3217 Z 0.0000
G01 X 3.9565 Y 415.0197 Z 0.0000
G01 X 3.5257 Y 414.8387 Z 0.0000
G01 X 3.0227 Y 414.7787 Z 0.0000
G01 X 2.5169 Y 414.8377 Z 0.0000
G00 Z 5.0000

(End cutting path id: path102)


(Start cutting path id: path102)
(Change tool to Default tool)

G00 Z 5.0000
G00 X -2.4052 Y 416.0827

G01 Z 0.0000 F 100.0000(Penetrate)
G01 X -1.0622 Y 416.0827 Z 0.0000 F 400.0000
G01 X -1.0622 Y 417.0457 Z 0.0000
G01 X -2.4052 Y 417.0457 Z 0.0000
G01 X -2.4052 Y 423.4447 Z 0.0000
G01 X -3.6872 Y 423.4447 Z 0.0000
G01 X -8.0602 Y 417.0287 Z 0.0000
G01 X -8.0602 Y 416.0827 Z 0.0000
G01 X -3.5582 Y 416.0827 Z 0.0000
G01 X -3.5582 Y 413.9087 Z 0.0000
G01 X -2.4052 Y 413.9087 Z 0.0000
G01 X -2.4052 Y 416.0827 Z 0.0000
G00 Z 5.0000

(End cutting path id: path102)


(Start cutting path id: path102)
(Change tool to Default tool)

G00 Z 5.0000
G00 X -6.9352 Y 417.0457

G01 Z 0.0000 F 100.0000(Penetrate)
G01 X -6.8272 Y 417.1807 Z 0.0000 F 400.0000
G01 X -6.4602 Y 417.6797 Z 0.0000
G01 X -4.0122 Y 421.2657 Z 0.0000
G01 X -3.9627 Y 421.3417 Z 0.0000
G01 X -3.9022 Y 421.4417 Z 0.0000
G01 X -3.8307 Y 421.5647 Z 0.0000
G01 X -3.7482 Y 421.7107 Z 0.0000
G01 X -3.6704 Y 421.8527 Z 0.0000
G01 X -3.6127 Y 421.9587 Z 0.0000
G01 X -3.5754 Y 422.0307 Z 0.0000
G01 X -3.5582 Y 422.0677 Z 0.0000
G01 X -3.5582 Y 417.0457 Z 0.0000
G01 X -6.9352 Y 417.0457 Z 0.0000
G00 Z 5.0000

(End cutting path id: path102)


(Start cutting path id: path102)
(Change tool to Default tool)

G00 Z 5.0000
G00 X -3.7722 Y 363.8267

G01 Z 0.0000 F 100.0000(Penetrate)
G01 X -3.1270 Y 363.9637 Z 0.0000 F 400.0000
G01 X -2.5717 Y 364.1927 Z 0.0000
G01 X -2.1062 Y 364.5127 Z 0.0000
G01 X -1.7383 Y 364.9157 Z 0.0000
G01 X -1.4755 Y 365.3947 Z 0.0000
G01 X -1.3178 Y 365.9487 Z 0.0000
G01 X -1.2652 Y 366.5777 Z 0.0000
G01 X -1.3025 Y 367.0187 Z 0.0000
G01 X -1.4145 Y 367.4217 Z 0.0000
G01 X -1.6010 Y 367.7847 Z 0.0000
G01 X -1.8622 Y 368.1087 Z 0.0000
G01 X -2.1903 Y 368.3817 Z 0.0000
G01 X -2.5777 Y 368.5947 Z 0.0000
G01 X -3.0243 Y 368.7447 Z 0.0000
G01 X -3.5302 Y 368.8337 Z 0.0000
G01 X -3.5302 Y 368.8607 Z 0.0000
G01 X -3.0712 Y 368.9857 Z 0.0000
G01 X -2.6702 Y 369.1557 Z 0.0000
G01 X -2.3272 Y 369.3717 Z 0.0000
G01 X -2.0422 Y 369.6337 Z 0.0000
G01 X -1.8182 Y 369.9407 Z 0.0000
G01 X -1.6582 Y 370.2907 Z 0.0000
G01 X -1.5622 Y 370.6827 Z 0.0000
G01 X -1.5302 Y 371.1167 Z 0.0000
G01 X -1.5800 Y 371.6787 Z 0.0000
G01 X -1.7295 Y 372.1747 Z 0.0000
G01 X -1.9785 Y 372.6057 Z 0.0000
G01 X -2.3272 Y 372.9707 Z 0.0000
G01 X -2.7654 Y 373.2627 Z 0.0000
G01 X -3.2837 Y 373.4707 Z 0.0000
G01 X -3.8824 Y 373.5957 Z 0.0000
G01 X -4.5612 Y 373.6367 Z 0.0000
G01 X -5.1893 Y 373.5957 Z 0.0000
G01 X -5.7575 Y 373.4727 Z 0.0000
G01 X -6.2658 Y 373.2667 Z 0.0000
G01 X -6.7142 Y 372.9787 Z 0.0000
G01 X -7.0889 Y 372.6187 Z 0.0000
G01 X -7.3760 Y 372.1927 Z 0.0000
G01 X -7.5754 Y 371.7037 Z 0.0000
G01 X -7.6872 Y 371.1487 Z 0.0000
G01 X -6.4602 Y 371.0537 Z 0.0000
G01 X -6.3937 Y 371.4087 Z 0.0000
G01 X -6.2750 Y 371.7217 Z 0.0000
G01 X -6.1042 Y 371.9917 Z 0.0000
G01 X -5.8812 Y 372.2187 Z 0.0000
G01 X -5.6125 Y 372.4007 Z 0.0000
G01 X -5.3052 Y 372.5297 Z 0.0000
G01 X -4.9595 Y 372.6077 Z 0.0000
G01 X -4.5752 Y 372.6327 Z 0.0000
G01 X -4.1581 Y 372.6057 Z 0.0000
G01 X -3.7957 Y 372.5227 Z 0.0000
G01 X -3.4881 Y 372.3847 Z 0.0000
G01 X -3.2352 Y 372.1907 Z 0.0000
G01 X -3.0379 Y 371.9507 Z 0.0000
G01 X -2.8970 Y 371.6697 Z 0.0000
G01 X -2.8124 Y 371.3487 Z 0.0000
G01 X -2.7842 Y 370.9877 Z 0.0000
G01 X -2.8188 Y 370.6247 Z 0.0000
G01 X -2.9225 Y 370.3027 Z 0.0000
G01 X -3.0953 Y 370.0227 Z 0.0000
G01 X -3.3372 Y 369.7847 Z 0.0000
G01 X -3.6419 Y 369.5937 Z 0.0000
G01 X -4.0027 Y 369.4577 Z 0.0000
G01 X -4.4199 Y 369.3767 Z 0.0000
G01 X -4.8932 Y 369.3487 Z 0.0000
G01 X -5.5582 Y 369.3487 Z 0.0000
G01 X -5.5582 Y 368.2917 Z 0.0000
G01 X -4.8662 Y 368.2917 Z 0.0000
G01 X -4.3335 Y 368.2637 Z 0.0000
G01 X -3.8672 Y 368.1807 Z 0.0000
G01 X -3.4675 Y 368.0417 Z 0.0000
G01 X -3.1342 Y 367.8487 Z 0.0000
G01 X -2.8717 Y 367.6057 Z 0.0000
G01 X -2.6842 Y 367.3197 Z 0.0000
G01 X -2.5717 Y 366.9897 Z 0.0000
G01 X -2.5342 Y 366.6167 Z 0.0000
G01 X -2.5671 Y 366.1917 Z 0.0000
G01 X -2.6657 Y 365.8227 Z 0.0000
G01 X -2.8301 Y 365.5087 Z 0.0000
G01 X -3.0602 Y 365.2517 Z 0.0000
G01 X -3.3475 Y 365.0497 Z 0.0000
G01 X -3.6845 Y 364.9067 Z 0.0000
G01 X -4.0710 Y 364.8197 Z 0.0000
G01 X -4.5072 Y 364.7917 Z 0.0000
G01 X -5.3266 Y 364.8977 Z 0.0000
G01 X -5.9467 Y 365.2157 Z 0.0000
G01 X -6.3676 Y 365.7457 Z 0.0000
G01 X -6.5892 Y 366.4877 Z 0.0000
G01 X -7.8502 Y 366.3727 Z 0.0000
G01 X -7.7249 Y 365.7707 Z 0.0000
G01 X -7.5120 Y 365.2467 Z 0.0000
G01 X -7.2114 Y 364.8017 Z 0.0000
G01 X -6.8232 Y 364.4357 Z 0.0000
G01 X -6.3541 Y 364.1487 Z 0.0000
G01 X -5.8117 Y 363.9447 Z 0.0000
G01 X -5.1961 Y 363.8217 Z 0.0000
G01 X -4.5072 Y 363.7817 Z 0.0000
G01 X -3.7722 Y 363.8267 Z 0.0000
G00 Z 5.0000

(End cutting path id: path102)


(Start cutting path id: path102)
(Change tool to Default tool)

G00 Z 5.0000
G00 X 3.6672 Y 363.8357

G01 Z 0.0000 F 100.0000(Penetrate)
G01 X 4.3338 Y 363.9977 Z 0.0000 F 400.0000
G01 X 4.9133 Y 364.2677 Z 0.0000
G01 X 5.4058 Y 364.6457 Z 0.0000
G01 X 5.7991 Y 365.1177 Z 0.0000
G01 X 6.0800 Y 365.6707 Z 0.0000
G01 X 6.2486 Y 366.3037 Z 0.0000
G01 X 6.3048 Y 367.0177 Z 0.0000
G01 X 6.2524 Y 367.6477 Z 0.0000
G01 X 6.0953 Y 368.2167 Z 0.0000
G01 X 5.8334 Y 368.7217 Z 0.0000
G01 X 5.4668 Y 369.1647 Z 0.0000
G01 X 5.0124 Y 369.5257 Z 0.0000
G01 X 4.4863 Y 369.7827 Z 0.0000
G01 X 3.8884 Y 369.9377 Z 0.0000
G01 X 3.2187 Y 369.9887 Z 0.0000
G01 X 2.6529 Y 369.9507 Z 0.0000
G01 X 2.1355 Y 369.8367 Z 0.0000
G01 X 1.6664 Y 369.6457 Z 0.0000
G01 X 1.2457 Y 369.3787 Z 0.0000
G01 X 1.4287 Y 372.4067 Z 0.0000
G01 X 5.7488 Y 372.4067 Z 0.0000
G01 X 5.7488 Y 373.4447 Z 0.0000
G01 X 0.3167 Y 373.4447 Z 0.0000
G01 X -0.0023 Y 368.3077 Z 0.0000
G01 X 1.1917 Y 368.3077 Z 0.0000
G01 X 1.4052 Y 368.4797 Z 0.0000
G01 X 1.6187 Y 368.6257 Z 0.0000
G01 X 1.8322 Y 368.7447 Z 0.0000
G01 X 2.0457 Y 368.8357 Z 0.0000
G01 X 2.2639 Y 368.9047 Z 0.0000
G01 X 2.4905 Y 368.9527 Z 0.0000
G01 X 2.7254 Y 368.9827 Z 0.0000
G01 X 2.9687 Y 368.9917 Z 0.0000
G01 X 3.4189 Y 368.9577 Z 0.0000
G01 X 3.8203 Y 368.8537 Z 0.0000
G01 X 4.1729 Y 368.6807 Z 0.0000
G01 X 4.4768 Y 368.4397 Z 0.0000
G01 X 4.7218 Y 368.1417 Z 0.0000
G01 X 4.8968 Y 367.8007 Z 0.0000
G01 X 5.0018 Y 367.4167 Z 0.0000
G01 X 5.0368 Y 366.9907 Z 0.0000
G01 X 5.0020 Y 366.5017 Z 0.0000
G01 X 4.8978 Y 366.0687 Z 0.0000
G01 X 4.7240 Y 365.6907 Z 0.0000
G01 X 4.4808 Y 365.3687 Z 0.0000
G01 X 4.1760 Y 365.1097 Z 0.0000
G01 X 3.8178 Y 364.9257 Z 0.0000
G01 X 3.4060 Y 364.8147 Z 0.0000
G01 X 2.9407 Y 364.7787 Z 0.0000
G01 X 2.2166 Y 364.8667 Z 0.0000
G01 X 1.6440 Y 365.1327 Z 0.0000
G01 X 1.2231 Y 365.5757 Z 0.0000
G01 X 0.9537 Y 366.1967 Z 0.0000
G01 X -0.2803 Y 366.0547 Z 0.0000
G01 X -0.1341 Y 365.5337 Z 0.0000
G01 X 0.0875 Y 365.0787 Z 0.0000
G01 X 0.3844 Y 364.6887 Z 0.0000
G01 X 0.7567 Y 364.3647 Z 0.0000
G01 X 1.1994 Y 364.1087 Z 0.0000
G01 X 1.7065 Y 363.9267 Z 0.0000
G01 X 2.2779 Y 363.8177 Z 0.0000
G01 X 2.9137 Y 363.7817 Z 0.0000
G01 X 3.6672 Y 363.8357 Z 0.0000
G00 Z 5.0000

(End cutting path id: path102)


(Start cutting path id: path102)
(Change tool to Default tool)

G00 Z 5.0000
G00 X 3.7825 Y 313.8607

G01 Z 0.0000 F 100.0000(Penetrate)
G01 X 4.4558 Y 314.0977 Z 0.0000 F 400.0000
G01 X 5.0285 Y 314.4927 Z 0.0000
G01 X 5.5008 Y 315.0457 Z 0.0000
G01 X 5.8700 Y 315.7487 Z 0.0000
G01 X 6.1338 Y 316.5937 Z 0.0000
G01 X 6.2920 Y 317.5807 Z 0.0000
G01 X 6.3448 Y 318.7087 Z 0.0000
G01 X 6.2945 Y 319.8547 Z 0.0000
G01 X 6.1438 Y 320.8497 Z 0.0000
G01 X 5.8925 Y 321.6967 Z 0.0000
G01 X 5.5408 Y 322.3927 Z 0.0000
G01 X 5.0840 Y 322.9377 Z 0.0000
G01 X 4.5165 Y 323.3257 Z 0.0000
G01 X 3.8385 Y 323.5597 Z 0.0000
G01 X 3.0497 Y 323.6367 Z 0.0000
G01 X 2.2400 Y 323.5607 Z 0.0000
G01 X 1.5467 Y 323.3297 Z 0.0000
G01 X 0.9700 Y 322.9447 Z 0.0000
G01 X 0.5097 Y 322.4057 Z 0.0000
G01 X 0.1584 Y 321.7137 Z 0.0000
G01 X -0.0925 Y 320.8667 Z 0.0000
G01 X -0.2431 Y 319.8657 Z 0.0000
G01 X -0.2933 Y 318.7087 Z 0.0000
G01 X -0.2416 Y 317.5747 Z 0.0000
G01 X -0.0865 Y 316.5847 Z 0.0000
G01 X 0.1719 Y 315.7397 Z 0.0000
G01 X 0.5337 Y 315.0387 Z 0.0000
G01 X 0.9986 Y 314.4887 Z 0.0000
G01 X 1.5660 Y 314.0957 Z 0.0000
G01 X 2.2361 Y 313.8597 Z 0.0000
G01 X 3.0087 Y 313.7817 Z 0.0000
G01 X 3.7825 Y 313.8607 Z 0.0000
G00 Z 5.0000

(End cutting path id: path102)


(Start cutting path id: path102)
(Change tool to Default tool)

G00 Z 5.0000
G00 X 2.5169 Y 314.8377

G01 Z 0.0000 F 100.0000(Penetrate)
G01 X 2.0842 Y 315.0147 Z 0.0000 F 400.0000
G01 X 1.7249 Y 315.3097 Z 0.0000
G01 X 1.4387 Y 315.7237 Z 0.0000
G01 X 1.2209 Y 316.2647 Z 0.0000
G01 X 1.0652 Y 316.9427 Z 0.0000
G01 X 0.9719 Y 317.7577 Z 0.0000
G01 X 0.9407 Y 318.7087 Z 0.0000
G01 X 0.9714 Y 319.6857 Z 0.0000
G01 X 1.0635 Y 320.5147 Z 0.0000
G01 X 1.2169 Y 321.1957 Z 0.0000
G01 X 1.4317 Y 321.7287 Z 0.0000
G01 X 1.7174 Y 322.1307 Z 0.0000
G01 X 2.0822 Y 322.4177 Z 0.0000
G01 X 2.5264 Y 322.5897 Z 0.0000
G01 X 3.0497 Y 322.6467 Z 0.0000
G01 X 3.5600 Y 322.5887 Z 0.0000
G01 X 3.9928 Y 322.4137 Z 0.0000
G01 X 4.3480 Y 322.1227 Z 0.0000
G01 X 4.6258 Y 321.7147 Z 0.0000
G01 X 4.8349 Y 321.1777 Z 0.0000
G01 X 4.9843 Y 320.4977 Z 0.0000
G01 X 5.0739 Y 319.6747 Z 0.0000
G01 X 5.1038 Y 318.7087 Z 0.0000
G01 X 5.0724 Y 317.7747 Z 0.0000
G01 X 4.9783 Y 316.9687 Z 0.0000
G01 X 4.8214 Y 316.2917 Z 0.0000
G01 X 4.6018 Y 315.7447 Z 0.0000
G01 X 4.3152 Y 315.3217 Z 0.0000
G01 X 3.9565 Y 315.0197 Z 0.0000
G01 X 3.5257 Y 314.8387 Z 0.0000
G01 X 3.0227 Y 314.7787 Z 0.0000
G01 X 2.5169 Y 314.8377 Z 0.0000
G00 Z 5.0000

(End cutting path id: path102)


(Start cutting path id: path102)
(Change tool to Default tool)

G00 Z 5.0000
G00 X -3.7722 Y 313.8267

G01 Z 0.0000 F 100.0000(Penetrate)
G01 X -3.1270 Y 313.9637 Z 0.0000 F 400.0000
G01 X -2.5717 Y 314.1927 Z 0.0000
G01 X -2.1062 Y 314.5127 Z 0.0000
G01 X -1.7383 Y 314.9157 Z 0.0000
G01 X -1.4755 Y 315.3947 Z 0.0000
G01 X -1.3178 Y 315.9487 Z 0.0000
G01 X -1.2652 Y 316.5777 Z 0.0000
G01 X -1.3025 Y 317.0187 Z 0.0000
G01 X -1.4145 Y 317.4217 Z 0.0000
G01 X -1.6010 Y 317.7847 Z 0.0000
G01 X -1.8622 Y 318.1087 Z 0.0000
G01 X -2.1903 Y 318.3817 Z 0.0000
G01 X -2.5777 Y 318.5947 Z 0.0000
G01 X -3.0243 Y 318.7447 Z 0.0000
G01 X -3.5302 Y 318.8337 Z 0.0000
G01 X -3.5302 Y 318.8607 Z 0.0000
G01 X -3.0712 Y 318.9857 Z 0.0000
G01 X -2.6702 Y 319.1557 Z 0.0000
G01 X -2.3272 Y 319.3717 Z 0.0000
G01 X -2.0422 Y 319.6337 Z 0.0000
G01 X -1.8182 Y 319.9407 Z 0.0000
G01 X -1.6582 Y 320.2907 Z 0.0000
G01 X -1.5622 Y 320.6827 Z 0.0000
G01 X -1.5302 Y 321.1167 Z 0.0000
G01 X -1.5800 Y 321.6787 Z 0.0000
G01 X -1.7295 Y 322.1747 Z 0.0000
G01 X -1.9785 Y 322.6057 Z 0.0000
G01 X -2.3272 Y 322.9707 Z 0.0000
G01 X -2.7654 Y 323.2627 Z 0.0000
G01 X -3.2837 Y 323.4707 Z 0.0000
G01 X -3.8824 Y 323.5957 Z 0.0000
G01 X -4.5612 Y 323.6367 Z 0.0000
G01 X -5.1893 Y 323.5957 Z 0.0000
G01 X -5.7575 Y 323.4727 Z 0.0000
G01 X -6.2658 Y 323.2667 Z 0.0000
G01 X -6.7142 Y 322.9787 Z 0.0000
G01 X -7.0889 Y 322.6187 Z 0.0000
G01 X -7.3760 Y 322.1927 Z 0.0000
G01 X -7.5754 Y 321.7037 Z 0.0000
G01 X -7.6872 Y 321.1487 Z 0.0000
G01 X -6.4602 Y 321.0537 Z 0.0000
G01 X -6.3937 Y 321.4087 Z 0.0000
G01 X -6.2750 Y 321.7217 Z 0.0000
G01 X -6.1042 Y 321.9917 Z 0.0000
G01 X -5.8812 Y 322.2187 Z 0.0000
G01 X -5.6125 Y 322.4007 Z 0.0000
G01 X -5.3052 Y 322.5297 Z 0.0000
G01 X -4.9595 Y 322.6077 Z 0.0000
G01 X -4.5752 Y 322.6327 Z 0.0000
G01 X -4.1581 Y 322.6057 Z 0.0000
G01 X -3.7957 Y 322.5227 Z 0.0000
G01 X -3.4881 Y 322.3847 Z 0.0000
G01 X -3.2352 Y 322.1907 Z 0.0000
G01 X -3.0379 Y 321.9507 Z 0.0000
G01 X -2.8970 Y 321.6697 Z 0.0000
G01 X -2.8124 Y 321.3487 Z 0.0000
G01 X -2.7842 Y 320.9877 Z 0.0000
G01 X -2.8188 Y 320.6247 Z 0.0000
G01 X -2.9225 Y 320.3027 Z 0.0000
G01 X -3.0953 Y 320.0227 Z 0.0000
G01 X -3.3372 Y 319.7847 Z 0.0000
G01 X -3.6419 Y 319.5937 Z 0.0000
G01 X -4.0027 Y 319.4577 Z 0.0000
G01 X -4.4199 Y 319.3767 Z 0.0000
G01 X -4.8932 Y 319.3487 Z 0.0000
G01 X -5.5582 Y 319.3487 Z 0.0000
G01 X -5.5582 Y 318.2917 Z 0.0000
G01 X -4.8662 Y 318.2917 Z 0.0000
G01 X -4.3335 Y 318.2637 Z 0.0000
G01 X -3.8672 Y 318.1807 Z 0.0000
G01 X -3.4675 Y 318.0417 Z 0.0000
G01 X -3.1342 Y 317.8487 Z 0.0000
G01 X -2.8717 Y 317.6057 Z 0.0000
G01 X -2.6842 Y 317.3197 Z 0.0000
G01 X -2.5717 Y 316.9897 Z 0.0000
G01 X -2.5342 Y 316.6167 Z 0.0000
G01 X -2.5671 Y 316.1917 Z 0.0000
G01 X -2.6657 Y 315.8227 Z 0.0000
G01 X -2.8301 Y 315.5087 Z 0.0000
G01 X -3.0602 Y 315.2517 Z 0.0000
G01 X -3.3475 Y 315.0497 Z 0.0000
G01 X -3.6845 Y 314.9067 Z 0.0000
G01 X -4.0710 Y 314.8197 Z 0.0000
G01 X -4.5072 Y 314.7917 Z 0.0000
G01 X -5.3266 Y 314.8977 Z 0.0000
G01 X -5.9467 Y 315.2157 Z 0.0000
G01 X -6.3676 Y 315.7457 Z 0.0000
G01 X -6.5892 Y 316.4877 Z 0.0000
G01 X -7.8502 Y 316.3727 Z 0.0000
G01 X -7.7249 Y 315.7707 Z 0.0000
G01 X -7.5120 Y 315.2467 Z 0.0000
G01 X -7.2114 Y 314.8017 Z 0.0000
G01 X -6.8232 Y 314.4357 Z 0.0000
G01 X -6.3541 Y 314.1487 Z 0.0000
G01 X -5.8117 Y 313.9447 Z 0.0000
G01 X -5.1961 Y 313.8217 Z 0.0000
G01 X -4.5072 Y 313.7817 Z 0.0000
G01 X -3.7722 Y 313.8267 Z 0.0000
G00 Z 5.0000

(End cutting path id: path102)


(Start cutting path id: path102)
(Change tool to Default tool)

G00 Z 5.0000
G00 X -1.3542 Y 264.9477

G01 Z 0.0000 F 100.0000(Penetrate)
G01 X -6.3382 Y 264.9477 Z 0.0000 F 400.0000
G01 X -6.2206 Y 265.1877 Z 0.0000
G01 X -6.0707 Y 265.4327 Z 0.0000
G01 X -5.8886 Y 265.6827 Z 0.0000
G01 X -5.6742 Y 265.9377 Z 0.0000
G01 X -5.4234 Y 266.2017 Z 0.0000
G01 X -5.1327 Y 266.4827 Z 0.0000
G01 X -4.8023 Y 266.7787 Z 0.0000
G01 X -4.4322 Y 267.0917 Z 0.0000
G01 X -3.7810 Y 267.6317 Z 0.0000
G01 X -3.2442 Y 268.0957 Z 0.0000
G01 X -2.8220 Y 268.4847 Z 0.0000
G01 X -2.5142 Y 268.7977 Z 0.0000
G01 X -2.2787 Y 269.0737 Z 0.0000
G01 X -2.0742 Y 269.3497 Z 0.0000
G01 X -1.9007 Y 269.6257 Z 0.0000
G01 X -1.7582 Y 269.9007 Z 0.0000
G01 X -1.6467 Y 270.1767 Z 0.0000
G01 X -1.5670 Y 270.4537 Z 0.0000
G01 X -1.5192 Y 270.7317 Z 0.0000
G01 X -1.5032 Y 271.0097 Z 0.0000
G01 X -1.5518 Y 271.6037 Z 0.0000
G01 X -1.6975 Y 272.1257 Z 0.0000
G01 X -1.9403 Y 272.5757 Z 0.0000
G01 X -2.2802 Y 272.9527 Z 0.0000
G01 X -2.7100 Y 273.2527 Z 0.0000
G01 X -3.2232 Y 273.4657 Z 0.0000
G01 X -3.8200 Y 273.5947 Z 0.0000
G01 X -4.5002 Y 273.6367 Z 0.0000
G01 X -5.1283 Y 273.5947 Z 0.0000
G01 X -5.6965 Y 273.4677 Z 0.0000
G01 X -6.2048 Y 273.2557 Z 0.0000
G01 X -6.6532 Y 272.9587 Z 0.0000
G01 X -7.0279 Y 272.5907 Z 0.0000
G01 X -7.3150 Y 272.1637 Z 0.0000
G01 X -7.5144 Y 271.6787 Z 0.0000
G01 X -7.6262 Y 271.1347 Z 0.0000
G01 X -6.3792 Y 271.0197 Z 0.0000
G01 X -6.3092 Y 271.3817 Z 0.0000
G01 X -6.1870 Y 271.7007 Z 0.0000
G01 X -6.0127 Y 271.9767 Z 0.0000
G01 X -5.7862 Y 272.2087 Z 0.0000
G01 X -5.5161 Y 272.3947 Z 0.0000
G01 X -5.2117 Y 272.5267 Z 0.0000
G01 X -4.8731 Y 272.6067 Z 0.0000
G01 X -4.5002 Y 272.6327 Z 0.0000
G01 X -4.1122 Y 272.6057 Z 0.0000
G01 X -3.7692 Y 272.5237 Z 0.0000
G01 X -3.4712 Y 272.3877 Z 0.0000
G01 X -3.2182 Y 272.1957 Z 0.0000
G01 X -3.0165 Y 271.9557 Z 0.0000
G01 X -2.8725 Y 271.6717 Z 0.0000
G01 X -2.7860 Y 271.3427 Z 0.0000
G01 X -2.7572 Y 270.9687 Z 0.0000
G01 X -2.7740 Y 270.6847 Z 0.0000
G01 X -2.8242 Y 270.4147 Z 0.0000
G01 X -2.9080 Y 270.1607 Z 0.0000
G01 X -3.0252 Y 269.9207 Z 0.0000
G01 X -3.1696 Y 269.6927 Z 0.0000
G01 X -3.3347 Y 269.4687 Z 0.0000
G01 X -3.5206 Y 269.2507 Z 0.0000
G01 X -3.7272 Y 269.0367 Z 0.0000
G01 X -3.9508 Y 268.8257 Z 0.0000
G01 X -4.1875 Y 268.6147 Z 0.0000
G01 X -4.4373 Y 268.4047 Z 0.0000
G01 X -4.7002 Y 268.1937 Z 0.0000
G01 X -4.9704 Y 267.9777 Z 0.0000
G01 X -5.2420 Y 267.7537 Z 0.0000
G01 X -5.5149 Y 267.5207 Z 0.0000
G01 X -5.7892 Y 267.2787 Z 0.0000
G01 X -6.0606 Y 267.0247 Z 0.0000
G01 X -6.3257 Y 266.7567 Z 0.0000
G01 X -6.5846 Y 266.4737 Z 0.0000
G01 X -6.8372 Y 266.1767 Z 0.0000
G01 X -7.0767 Y 265.8597 Z 0.0000
G01 X -7.2972 Y 265.5207 Z 0.0000
G01 X -7.4987 Y 265.1577 Z 0.0000
G01 X -7.6812 Y 264.7717 Z 0.0000
G01 X -7.6812 Y 263.9087 Z 0.0000
G01 X -1.3542 Y 263.9087 Z 0.0000
G01 X -1.3542 Y 264.9477 Z 0.0000
G00 Z 5.0000

(End cutting path id: path102)


(Start cutting path id: path102)
(Change tool to Default tool)

G00 Z 5.0000
G00 X 3.6672 Y 263.8357

G01 Z 0.0000 F 100.0000(Penetrate)
G01 X 4.3338 Y 263.9977 Z 0.0000 F 400.0000
G01 X 4.9133 Y 264.2677 Z 0.0000
G01 X 5.4058 Y 264.6457 Z 0.0000
G01 X 5.7991 Y 265.1177 Z 0.0000
G01 X 6.0800 Y 265.6707 Z 0.0000
G01 X 6.2486 Y 266.3037 Z 0.0000
G01 X 6.3048 Y 267.0177 Z 0.0000
G01 X 6.2524 Y 267.6477 Z 0.0000
G01 X 6.0953 Y 268.2167 Z 0.0000
G01 X 5.8334 Y 268.7217 Z 0.0000
G01 X 5.4668 Y 269.1647 Z 0.0000
G01 X 5.0124 Y 269.5257 Z 0.0000
G01 X 4.4863 Y 269.7827 Z 0.0000
G01 X 3.8884 Y 269.9377 Z 0.0000
G01 X 3.2187 Y 269.9887 Z 0.0000
G01 X 2.6529 Y 269.9507 Z 0.0000
G01 X 2.1355 Y 269.8367 Z 0.0000
G01 X 1.6664 Y 269.6457 Z 0.0000
G01 X 1.2457 Y 269.3787 Z 0.0000
G01 X 1.4287 Y 272.4067 Z 0.0000
G01 X 5.7488 Y 272.4067 Z 0.0000
G01 X 5.7488 Y 273.4447 Z 0.0000
G01 X 0.3167 Y 273.4447 Z 0.0000
G01 X -0.0023 Y 268.3077 Z 0.0000
G01 X 1.1917 Y 268.3077 Z 0.0000
G01 X 1.4052 Y 268.4797 Z 0.0000
G01 X 1.6187 Y 268.6257 Z 0.0000
G01 X 1.8322 Y 268.7447 Z 0.0000
G01 X 2.0457 Y 268.8357 Z 0.0000
G01 X 2.2639 Y 268.9047 Z 0.0000
G01 X 2.4905 Y 268.9527 Z 0.0000
G01 X 2.7254 Y 268.9827 Z 0.0000
G01 X 2.9687 Y 268.9917 Z 0.0000
G01 X 3.4189 Y 268.9577 Z 0.0000
G01 X 3.8203 Y 268.8537 Z 0.0000
G01 X 4.1729 Y 268.6807 Z 0.0000
G01 X 4.4768 Y 268.4397 Z 0.0000
G01 X 4.7218 Y 268.1417 Z 0.0000
G01 X 4.8968 Y 267.8007 Z 0.0000
G01 X 5.0018 Y 267.4167 Z 0.0000
G01 X 5.0368 Y 266.9907 Z 0.0000
G01 X 5.0020 Y 266.5017 Z 0.0000
G01 X 4.8978 Y 266.0687 Z 0.0000
G01 X 4.7240 Y 265.6907 Z 0.0000
G01 X 4.4808 Y 265.3687 Z 0.0000
G01 X 4.1760 Y 265.1097 Z 0.0000
G01 X 3.8178 Y 264.9257 Z 0.0000
G01 X 3.4060 Y 264.8147 Z 0.0000
G01 X 2.9407 Y 264.7787 Z 0.0000
G01 X 2.2166 Y 264.8667 Z 0.0000
G01 X 1.6440 Y 265.1327 Z 0.0000
G01 X 1.2231 Y 265.5757 Z 0.0000
G01 X 0.9537 Y 266.1967 Z 0.0000
G01 X -0.2803 Y 266.0547 Z 0.0000
G01 X -0.1341 Y 265.5337 Z 0.0000
G01 X 0.0875 Y 265.0787 Z 0.0000
G01 X 0.3844 Y 264.6887 Z 0.0000
G01 X 0.7567 Y 264.3647 Z 0.0000
G01 X 1.1994 Y 264.1087 Z 0.0000
G01 X 1.7065 Y 263.9267 Z 0.0000
G01 X 2.2779 Y 263.8177 Z 0.0000
G01 X 2.9137 Y 263.7817 Z 0.0000
G01 X 3.6672 Y 263.8357 Z 0.0000
G00 Z 5.0000

(End cutting path id: path102)


(Start cutting path id: path102)
(Change tool to Default tool)

G00 Z 5.0000
G00 X 3.7825 Y 213.8607

G01 Z 0.0000 F 100.0000(Penetrate)
G01 X 4.4558 Y 214.0977 Z 0.0000 F 400.0000
G01 X 5.0285 Y 214.4927 Z 0.0000
G01 X 5.5008 Y 215.0457 Z 0.0000
G01 X 5.8700 Y 215.7487 Z 0.0000
G01 X 6.1338 Y 216.5937 Z 0.0000
G01 X 6.2920 Y 217.5807 Z 0.0000
G01 X 6.3448 Y 218.7087 Z 0.0000
G01 X 6.2945 Y 219.8547 Z 0.0000
G01 X 6.1438 Y 220.8497 Z 0.0000
G01 X 5.8925 Y 221.6967 Z 0.0000
G01 X 5.5408 Y 222.3927 Z 0.0000
G01 X 5.0840 Y 222.9377 Z 0.0000
G01 X 4.5165 Y 223.3257 Z 0.0000
G01 X 3.8385 Y 223.5597 Z 0.0000
G01 X 3.0497 Y 223.6367 Z 0.0000
G01 X 2.2400 Y 223.5607 Z 0.0000
G01 X 1.5467 Y 223.3297 Z 0.0000
G01 X 0.9700 Y 222.9447 Z 0.0000
G01 X 0.5097 Y 222.4057 Z 0.0000
G01 X 0.1584 Y 221.7137 Z 0.0000
G01 X -0.0925 Y 220.8667 Z 0.0000
G01 X -0.2431 Y 219.8657 Z 0.0000
G01 X -0.2933 Y 218.7087 Z 0.0000
G01 X -0.2416 Y 217.5747 Z 0.0000
G01 X -0.0865 Y 216.5847 Z 0.0000
G01 X 0.1719 Y 215.7397 Z 0.0000
G01 X 0.5337 Y 215.0387 Z 0.0000
G01 X 0.9986 Y 214.4887 Z 0.0000
G01 X 1.5660 Y 214.0957 Z 0.0000
G01 X 2.2361 Y 213.8597 Z 0.0000
G01 X 3.0087 Y 213.7817 Z 0.0000
G01 X 3.7825 Y 213.8607 Z 0.0000
G00 Z 5.0000

(End cutting path id: path102)


(Start cutting path id: path102)
(Change tool to Default tool)

G00 Z 5.0000
G00 X 2.5169 Y 214.8377

G01 Z 0.0000 F 100.0000(Penetrate)
G01 X 2.0842 Y 215.0147 Z 0.0000 F 400.0000
G01 X 1.7249 Y 215.3097 Z 0.0000
G01 X 1.4387 Y 215.7237 Z 0.0000
G01 X 1.2209 Y 216.2647 Z 0.0000
G01 X 1.0652 Y 216.9427 Z 0.0000
G01 X 0.9719 Y 217.7577 Z 0.0000
G01 X 0.9407 Y 218.7087 Z 0.0000
G01 X 0.9714 Y 219.6857 Z 0.0000
G01 X 1.0635 Y 220.5147 Z 0.0000
G01 X 1.2169 Y 221.1957 Z 0.0000
G01 X 1.4317 Y 221.7287 Z 0.0000
G01 X 1.7174 Y 222.1307 Z 0.0000
G01 X 2.0822 Y 222.4177 Z 0.0000
G01 X 2.5264 Y 222.5897 Z 0.0000
G01 X 3.0497 Y 222.6467 Z 0.0000
G01 X 3.5600 Y 222.5887 Z 0.0000
G01 X 3.9928 Y 222.4137 Z 0.0000
G01 X 4.3480 Y 222.1227 Z 0.0000
G01 X 4.6258 Y 221.7147 Z 0.0000
G01 X 4.8349 Y 221.1777 Z 0.0000
G01 X 4.9843 Y 220.4977 Z 0.0000
G01 X 5.0739 Y 219.6747 Z 0.0000
G01 X 5.1038 Y 218.7087 Z 0.0000
G01 X 5.0724 Y 217.7747 Z 0.0000
G01 X 4.9783 Y 216.9687 Z 0.0000
G01 X 4.8214 Y 216.2917 Z 0.0000
G01 X 4.6018 Y 215.7447 Z 0.0000
G01 X 4.3152 Y 215.3217 Z 0.0000
G01 X 3.9565 Y 215.0197 Z 0.0000
G01 X 3.5257 Y 214.8387 Z 0.0000
G01 X 3.0227 Y 214.7787 Z 0.0000
G01 X 2.5169 Y 214.8377 Z 0.0000
G00 Z 5.0000

(End cutting path id: path102)


(Start cutting path id: path102)
(Change tool to Default tool)

G00 Z 5.0000
G00 X -1.3542 Y 214.9477

G01 Z 0.0000 F 100.0000(Penetrate)
G01 X -6.3382 Y 214.9477 Z 0.0000 F 400.0000
G01 X -6.2206 Y 215.1877 Z 0.0000
G01 X -6.0707 Y 215.4327 Z 0.0000
G01 X -5.8886 Y 215.6827 Z 0.0000
G01 X -5.6742 Y 215.9377 Z 0.0000
G01 X -5.4234 Y 216.2017 Z 0.0000
G01 X -5.1327 Y 216.4827 Z 0.0000
G01 X -4.8023 Y 216.7787 Z 0.0000
G01 X -4.4322 Y 217.0917 Z 0.0000
G01 X -3.7810 Y 217.6317 Z 0.0000
G01 X -3.2442 Y 218.0957 Z 0.0000
G01 X -2.8220 Y 218.4847 Z 0.0000
G01 X -2.5142 Y 218.7977 Z 0.0000
G01 X -2.2787 Y 219.0737 Z 0.0000
G01 X -2.0742 Y 219.3497 Z 0.0000
G01 X -1.9007 Y 219.6257 Z 0.0000
G01 X -1.7582 Y 219.9007 Z 0.0000
G01 X -1.6467 Y 220.1767 Z 0.0000
G01 X -1.5670 Y 220.4537 Z 0.0000
G01 X -1.5192 Y 220.7317 Z 0.0000
G01 X -1.5032 Y 221.0097 Z 0.0000
G01 X -1.5518 Y 221.6037 Z 0.0000
G01 X -1.6975 Y 222.1257 Z 0.0000
G01 X -1.9403 Y 222.5757 Z 0.0000
G01 X -2.2802 Y 222.9527 Z 0.0000
G01 X -2.7100 Y 223.2527 Z 0.0000
G01 X -3.2232 Y 223.4657 Z 0.0000
G01 X -3.8200 Y 223.5947 Z 0.0000
G01 X -4.5002 Y 223.6367 Z 0.0000
G01 X -5.1283 Y 223.5947 Z 0.0000
G01 X -5.6965 Y 223.4677 Z 0.0000
G01 X -6.2048 Y 223.2557 Z 0.0000
G01 X -6.6532 Y 222.9587 Z 0.0000
G01 X -7.0279 Y 222.5907 Z 0.0000
G01 X -7.3150 Y 222.1637 Z 0.0000
G01 X -7.5144 Y 221.6787 Z 0.0000
G01 X -7.6262 Y 221.1347 Z 0.0000
G01 X -6.3792 Y 221.0197 Z 0.0000
G01 X -6.3092 Y 221.3817 Z 0.0000
G01 X -6.1870 Y 221.7007 Z 0.0000
G01 X -6.0127 Y 221.9767 Z 0.0000
G01 X -5.7862 Y 222.2087 Z 0.0000
G01 X -5.5161 Y 222.3947 Z 0.0000
G01 X -5.2117 Y 222.5267 Z 0.0000
G01 X -4.8731 Y 222.6067 Z 0.0000
G01 X -4.5002 Y 222.6327 Z 0.0000
G01 X -4.1122 Y 222.6057 Z 0.0000
G01 X -3.7692 Y 222.5237 Z 0.0000
G01 X -3.4712 Y 222.3877 Z 0.0000
G01 X -3.2182 Y 222.1957 Z 0.0000
G01 X -3.0165 Y 221.9557 Z 0.0000
G01 X -2.8725 Y 221.6717 Z 0.0000
G01 X -2.7860 Y 221.3427 Z 0.0000
G01 X -2.7572 Y 220.9687 Z 0.0000
G01 X -2.7740 Y 220.6847 Z 0.0000
G01 X -2.8242 Y 220.4147 Z 0.0000
G01 X -2.9080 Y 220.1607 Z 0.0000
G01 X -3.0252 Y 219.9207 Z 0.0000
G01 X -3.1696 Y 219.6927 Z 0.0000
G01 X -3.3347 Y 219.4687 Z 0.0000
G01 X -3.5206 Y 219.2507 Z 0.0000
G01 X -3.7272 Y 219.0367 Z 0.0000
G01 X -3.9508 Y 218.8257 Z 0.0000
G01 X -4.1875 Y 218.6147 Z 0.0000
G01 X -4.4373 Y 218.4047 Z 0.0000
G01 X -4.7002 Y 218.1937 Z 0.0000
G01 X -4.9704 Y 217.9777 Z 0.0000
G01 X -5.2420 Y 217.7537 Z 0.0000
G01 X -5.5149 Y 217.5207 Z 0.0000
G01 X -5.7892 Y 217.2787 Z 0.0000
G01 X -6.0606 Y 217.0247 Z 0.0000
G01 X -6.3257 Y 216.7567 Z 0.0000
G01 X -6.5846 Y 216.4737 Z 0.0000
G01 X -6.8372 Y 216.1767 Z 0.0000
G01 X -7.0767 Y 215.8597 Z 0.0000
G01 X -7.2972 Y 215.5207 Z 0.0000
G01 X -7.4987 Y 215.1577 Z 0.0000
G01 X -7.6812 Y 214.7717 Z 0.0000
G01 X -7.6812 Y 213.9087 Z 0.0000
G01 X -1.3542 Y 213.9087 Z 0.0000
G01 X -1.3542 Y 214.9477 Z 0.0000
G00 Z 5.0000

(End cutting path id: path102)


(Start cutting path id: path102)
(Change tool to Default tool)

G00 Z 5.0000
G00 X -1.3332 Y 165.0407

G01 Z 0.0000 F 100.0000(Penetrate)
G01 X -3.6592 Y 165.0407 Z 0.0000 F 400.0000
G01 X -3.6592 Y 173.5387 Z 0.0000
G01 X -4.7852 Y 173.5387 Z 0.0000
G01 X -7.0432 Y 172.0037 Z 0.0000
G01 X -7.0432 Y 170.8507 Z 0.0000
G01 X -4.8872 Y 172.3717 Z 0.0000
G01 X -4.8872 Y 165.0407 Z 0.0000
G01 X -7.3212 Y 165.0407 Z 0.0000
G01 X -7.3212 Y 164.0027 Z 0.0000
G01 X -1.3332 Y 164.0027 Z 0.0000
G01 X -1.3332 Y 165.0407 Z 0.0000
G00 Z 5.0000

(End cutting path id: path102)


(Start cutting path id: path102)
(Change tool to Default tool)

G00 Z 5.0000
G00 X 3.6672 Y 163.9287

G01 Z 0.0000 F 100.0000(Penetrate)
G01 X 4.3338 Y 164.0907 Z 0.0000 F 400.0000
G01 X 4.9133 Y 164.3607 Z 0.0000
G01 X 5.4058 Y 164.7387 Z 0.0000
G01 X 5.7991 Y 165.2117 Z 0.0000
G01 X 6.0800 Y 165.7647 Z 0.0000
G01 X 6.2486 Y 166.3977 Z 0.0000
G01 X 6.3048 Y 167.1107 Z 0.0000
G01 X 6.2524 Y 167.7417 Z 0.0000
G01 X 6.0953 Y 168.3097 Z 0.0000
G01 X 5.8334 Y 168.8157 Z 0.0000
G01 X 5.4668 Y 169.2587 Z 0.0000
G01 X 5.0124 Y 169.6197 Z 0.0000
G01 X 4.4863 Y 169.8767 Z 0.0000
G01 X 3.8884 Y 170.0317 Z 0.0000
G01 X 3.2187 Y 170.0827 Z 0.0000
G01 X 2.6529 Y 170.0447 Z 0.0000
G01 X 2.1355 Y 169.9307 Z 0.0000
G01 X 1.6664 Y 169.7397 Z 0.0000
G01 X 1.2457 Y 169.4727 Z 0.0000
G01 X 1.4287 Y 172.5007 Z 0.0000
G01 X 5.7488 Y 172.5007 Z 0.0000
G01 X 5.7488 Y 173.5387 Z 0.0000
G01 X 0.3167 Y 173.5387 Z 0.0000
G01 X -0.0023 Y 168.4007 Z 0.0000
G01 X 1.1917 Y 168.4007 Z 0.0000
G01 X 1.4052 Y 168.5737 Z 0.0000
G01 X 1.6187 Y 168.7197 Z 0.0000
G01 X 1.8322 Y 168.8387 Z 0.0000
G01 X 2.0457 Y 168.9297 Z 0.0000
G01 X 2.2639 Y 168.9977 Z 0.0000
G01 X 2.4905 Y 169.0467 Z 0.0000
G01 X 2.7254 Y 169.0757 Z 0.0000
G01 X 2.9687 Y 169.0857 Z 0.0000
G01 X 3.4189 Y 169.0517 Z 0.0000
G01 X 3.8203 Y 168.9477 Z 0.0000
G01 X 4.1729 Y 168.7747 Z 0.0000
G01 X 4.4768 Y 168.5327 Z 0.0000
G01 X 4.7218 Y 168.2347 Z 0.0000
G01 X 4.8968 Y 167.8947 Z 0.0000
G01 X 5.0018 Y 167.5107 Z 0.0000
G01 X 5.0368 Y 167.0837 Z 0.0000
G01 X 5.0020 Y 166.5957 Z 0.0000
G01 X 4.8978 Y 166.1627 Z 0.0000
G01 X 4.7240 Y 165.7847 Z 0.0000
G01 X 4.4808 Y 165.4617 Z 0.0000
G01 X 4.1760 Y 165.2037 Z 0.0000
G01 X 3.8178 Y 165.0197 Z 0.0000
G01 X 3.4060 Y 164.9087 Z 0.0000
G01 X 2.9407 Y 164.8717 Z 0.0000
G01 X 2.2166 Y 164.9607 Z 0.0000
G01 X 1.6440 Y 165.2267 Z 0.0000
G01 X 1.2231 Y 165.6697 Z 0.0000
G01 X 0.9537 Y 166.2897 Z 0.0000
G01 X -0.2803 Y 166.1477 Z 0.0000
G01 X -0.1341 Y 165.6277 Z 0.0000
G01 X 0.0875 Y 165.1727 Z 0.0000
G01 X 0.3844 Y 164.7827 Z 0.0000
G01 X 0.7567 Y 164.4577 Z 0.0000
G01 X 1.1994 Y 164.2027 Z 0.0000
G01 X 1.7065 Y 164.0207 Z 0.0000
G01 X 2.2779 Y 163.9117 Z 0.0000
G01 X 2.9137 Y 163.8747 Z 0.0000
G01 X 3.6672 Y 163.9287 Z 0.0000
G00 Z 5.0000

(End cutting path id: path102)


(Start cutting path id: path102)
(Change tool to Default tool)

G00 Z 5.0000
G00 X 3.7825 Y 113.8602

G01 Z 0.0000 F 100.0000(Penetrate)
G01 X 4.4558 Y 114.0972 Z 0.0000 F 400.0000
G01 X 5.0285 Y 114.4922 Z 0.0000
G01 X 5.5008 Y 115.0452 Z 0.0000
G01 X 5.8700 Y 115.7486 Z 0.0000
G01 X 6.1338 Y 116.5937 Z 0.0000
G01 X 6.2920 Y 117.5806 Z 0.0000
G01 X 6.3448 Y 118.7087 Z 0.0000
G01 X 6.2945 Y 119.8547 Z 0.0000
G01 X 6.1438 Y 120.8497 Z 0.0000
G01 X 5.8925 Y 121.6967 Z 0.0000
G01 X 5.5408 Y 122.3927 Z 0.0000
G01 X 5.0840 Y 122.9377 Z 0.0000
G01 X 4.5165 Y 123.3257 Z 0.0000
G01 X 3.8385 Y 123.5597 Z 0.0000
G01 X 3.0497 Y 123.6367 Z 0.0000
G01 X 2.2400 Y 123.5607 Z 0.0000
G01 X 1.5467 Y 123.3297 Z 0.0000
G01 X 0.9700 Y 122.9447 Z 0.0000
G01 X 0.5097 Y 122.4057 Z 0.0000
G01 X 0.1584 Y 121.7137 Z 0.0000
G01 X -0.0925 Y 120.8667 Z 0.0000
G01 X -0.2431 Y 119.8657 Z 0.0000
G01 X -0.2933 Y 118.7087 Z 0.0000
G01 X -0.2416 Y 117.5749 Z 0.0000
G01 X -0.0865 Y 116.5850 Z 0.0000
G01 X 0.1719 Y 115.7394 Z 0.0000
G01 X 0.5337 Y 115.0382 Z 0.0000
G01 X 0.9986 Y 114.4883 Z 0.0000
G01 X 1.5660 Y 114.0955 Z 0.0000
G01 X 2.2361 Y 113.8598 Z 0.0000
G01 X 3.0087 Y 113.7812 Z 0.0000
G01 X 3.7825 Y 113.8602 Z 0.0000
G00 Z 5.0000

(End cutting path id: path102)


(Start cutting path id: path102)
(Change tool to Default tool)

G00 Z 5.0000
G00 X 2.5169 Y 114.8373

G01 Z 0.0000 F 100.0000(Penetrate)
G01 X 2.0842 Y 115.0145 Z 0.0000 F 400.0000
G01 X 1.7249 Y 115.3098 Z 0.0000
G01 X 1.4387 Y 115.7232 Z 0.0000
G01 X 1.2209 Y 116.2646 Z 0.0000
G01 X 1.0652 Y 116.9427 Z 0.0000
G01 X 0.9719 Y 117.7576 Z 0.0000
G01 X 0.9407 Y 118.7087 Z 0.0000
G01 X 0.9714 Y 119.6857 Z 0.0000
G01 X 1.0635 Y 120.5147 Z 0.0000
G01 X 1.2169 Y 121.1957 Z 0.0000
G01 X 1.4317 Y 121.7287 Z 0.0000
G01 X 1.7174 Y 122.1307 Z 0.0000
G01 X 2.0822 Y 122.4177 Z 0.0000
G01 X 2.5264 Y 122.5897 Z 0.0000
G01 X 3.0497 Y 122.6467 Z 0.0000
G01 X 3.5600 Y 122.5887 Z 0.0000
G01 X 3.9928 Y 122.4137 Z 0.0000
G01 X 4.3480 Y 122.1227 Z 0.0000
G01 X 4.6258 Y 121.7147 Z 0.0000
G01 X 4.8349 Y 121.1777 Z 0.0000
G01 X 4.9843 Y 120.4977 Z 0.0000
G01 X 5.0739 Y 119.6747 Z 0.0000
G01 X 5.1038 Y 118.7087 Z 0.0000
G01 X 5.0724 Y 117.7743 Z 0.0000
G01 X 4.9783 Y 116.9685 Z 0.0000
G01 X 4.8214 Y 116.2918 Z 0.0000
G01 X 4.6018 Y 115.7442 Z 0.0000
G01 X 4.3152 Y 115.3216 Z 0.0000
G01 X 3.9565 Y 115.0197 Z 0.0000
G01 X 3.5257 Y 114.8386 Z 0.0000
G01 X 3.0227 Y 114.7782 Z 0.0000
G01 X 2.5169 Y 114.8373 Z 0.0000
G00 Z 5.0000

(End cutting path id: path102)


(Start cutting path id: path102)
(Change tool to Default tool)

G00 Z 5.0000
G00 X -1.3332 Y 114.9472

G01 Z 0.0000 F 100.0000(Penetrate)
G01 X -3.6592 Y 114.9472 Z 0.0000 F 400.0000
G01 X -3.6592 Y 123.4447 Z 0.0000
G01 X -4.7852 Y 123.4447 Z 0.0000
G01 X -7.0432 Y 121.9097 Z 0.0000
G01 X -7.0432 Y 120.7567 Z 0.0000
G01 X -4.8872 Y 122.2777 Z 0.0000
G01 X -4.8872 Y 114.9472 Z 0.0000
G01 X -7.3212 Y 114.9472 Z 0.0000
G01 X -7.3212 Y 113.9092 Z 0.0000
G01 X -1.3332 Y 113.9092 Z 0.0000
G01 X -1.3332 Y 114.9472 Z 0.0000
G00 Z 5.0000

(End cutting path id: path102)


(Start cutting path id: path102)
(Change tool to Default tool)

G00 Z 5.0000
G00 X 3.6672 Y 63.9290

G01 Z 0.0000 F 100.0000(Penetrate)
G01 X 4.3338 Y 64.0910 Z 0.0000 F 400.0000
G01 X 4.9133 Y 64.3610 Z 0.0000
G01 X 5.4058 Y 64.7390 Z 0.0000
G01 X 5.7991 Y 65.2116 Z 0.0000
G01 X 6.0800 Y 65.7645 Z 0.0000
G01 X 6.2486 Y 66.3976 Z 0.0000
G01 X 6.3048 Y 67.1110 Z 0.0000
G01 X 6.2524 Y 67.7417 Z 0.0000
G01 X 6.0953 Y 68.3100 Z 0.0000
G01 X 5.8334 Y 68.8157 Z 0.0000
G01 X 5.4668 Y 69.2589 Z 0.0000
G01 X 5.0124 Y 69.6194 Z 0.0000
G01 X 4.4863 Y 69.8769 Z 0.0000
G01 X 3.8884 Y 70.0314 Z 0.0000
G01 X 3.2187 Y 70.0829 Z 0.0000
G01 X 2.6529 Y 70.0448 Z 0.0000
G01 X 2.1355 Y 69.9304 Z 0.0000
G01 X 1.6664 Y 69.7398 Z 0.0000
G01 X 1.2457 Y 69.4729 Z 0.0000
G01 X 1.4287 Y 72.5009 Z 0.0000
G01 X 5.7488 Y 72.5009 Z 0.0000
G01 X 5.7488 Y 73.5389 Z 0.0000
G01 X 0.3167 Y 73.5389 Z 0.0000
G01 X -0.0023 Y 68.4010 Z 0.0000
G01 X 1.1917 Y 68.4010 Z 0.0000
G01 X 1.4052 Y 68.5739 Z 0.0000
G01 X 1.6187 Y 68.7197 Z 0.0000
G01 X 1.8322 Y 68.8384 Z 0.0000
G01 X 2.0457 Y 68.9299 Z 0.0000
G01 X 2.2639 Y 68.9982 Z 0.0000
G01 X 2.4905 Y 69.0469 Z 0.0000
G01 X 2.7254 Y 69.0762 Z 0.0000
G01 X 2.9687 Y 69.0859 Z 0.0000
G01 X 3.4189 Y 69.0514 Z 0.0000
G01 X 3.8203 Y 68.9477 Z 0.0000
G01 X 4.1729 Y 68.7749 Z 0.0000
G01 X 4.4768 Y 68.5330 Z 0.0000
G01 X 4.7218 Y 68.2350 Z 0.0000
G01 X 4.8968 Y 67.8942 Z 0.0000
G01 X 5.0018 Y 67.5105 Z 0.0000
G01 X 5.0368 Y 67.0840 Z 0.0000
G01 X 5.0020 Y 66.5956 Z 0.0000
G01 X 4.8978 Y 66.1625 Z 0.0000
G01 X 4.7240 Y 65.7846 Z 0.0000
G01 X 4.4808 Y 65.4620 Z 0.0000
G01 X 4.1760 Y 65.2038 Z 0.0000
G01 X 3.8178 Y 65.0195 Z 0.0000
G01 X 3.4060 Y 64.9088 Z 0.0000
G01 X 2.9407 Y 64.8720 Z 0.0000
G01 X 2.2166 Y 64.9606 Z 0.0000
G01 X 1.6440 Y 65.2265 Z 0.0000
G01 X 1.2231 Y 65.6696 Z 0.0000
G01 X 0.9537 Y 66.2900 Z 0.0000
G01 X -0.2803 Y 66.1480 Z 0.0000
G01 X -0.1341 Y 65.6276 Z 0.0000
G01 X 0.0875 Y 65.1725 Z 0.0000
G01 X 0.3844 Y 64.7826 Z 0.0000
G01 X 0.7567 Y 64.4580 Z 0.0000
G01 X 1.1994 Y 64.2029 Z 0.0000
G01 X 1.7065 Y 64.0207 Z 0.0000
G01 X 2.2779 Y 63.9114 Z 0.0000
G01 X 2.9137 Y 63.8750 Z 0.0000
G01 X 3.6672 Y 63.9290 Z 0.0000
G00 Z 5.0000

(End cutting path id: path102)


(Start cutting path id: path102)
(Change tool to Default tool)

G00 Z 5.0000
G00 X 3.7825 Y 13.8602

G01 Z 0.0000 F 100.0000(Penetrate)
G01 X 4.4558 Y 14.0972 Z 0.0000 F 400.0000
G01 X 5.0285 Y 14.4923 Z 0.0000
G01 X 5.5008 Y 15.0452 Z 0.0000
G01 X 5.8700 Y 15.7486 Z 0.0000
G01 X 6.1338 Y 16.5938 Z 0.0000
G01 X 6.2920 Y 17.5806 Z 0.0000
G01 X 6.3448 Y 18.7092 Z 0.0000
G01 X 6.2945 Y 19.8545 Z 0.0000
G01 X 6.1438 Y 20.8502 Z 0.0000
G01 X 5.8925 Y 21.6965 Z 0.0000
G01 X 5.5408 Y 22.3932 Z 0.0000
G01 X 5.0840 Y 22.9375 Z 0.0000
G01 X 4.5165 Y 23.3262 Z 0.0000
G01 X 3.8385 Y 23.5595 Z 0.0000
G01 X 3.0497 Y 23.6372 Z 0.0000
G01 X 2.2400 Y 23.5603 Z 0.0000
G01 X 1.5467 Y 23.3295 Z 0.0000
G01 X 0.9700 Y 22.9448 Z 0.0000
G01 X 0.5097 Y 22.4062 Z 0.0000
G01 X 0.1584 Y 21.7139 Z 0.0000
G01 X -0.0925 Y 20.8670 Z 0.0000
G01 X -0.2431 Y 19.8654 Z 0.0000
G01 X -0.2933 Y 18.7092 Z 0.0000
G01 X -0.2416 Y 17.5749 Z 0.0000
G01 X -0.0865 Y 16.5850 Z 0.0000
G01 X 0.1719 Y 15.7394 Z 0.0000
G01 X 0.5337 Y 15.0383 Z 0.0000
G01 X 0.9986 Y 14.4883 Z 0.0000
G01 X 1.5660 Y 14.0955 Z 0.0000
G01 X 2.2361 Y 13.8598 Z 0.0000
G01 X 3.0087 Y 13.7813 Z 0.0000
G01 X 3.7825 Y 13.8602 Z 0.0000
G00 Z 5.0000

(End cutting path id: path102)


(Start cutting path id: path102)
(Change tool to Default tool)

G00 Z 5.0000
G00 X 2.5169 Y 14.8373

G01 Z 0.0000 F 100.0000(Penetrate)
G01 X 2.0842 Y 15.0145 Z 0.0000 F 400.0000
G01 X 1.7249 Y 15.3098 Z 0.0000
G01 X 1.4387 Y 15.7233 Z 0.0000
G01 X 1.2209 Y 16.2646 Z 0.0000
G01 X 1.0652 Y 16.9428 Z 0.0000
G01 X 0.9719 Y 17.7576 Z 0.0000
G01 X 0.9407 Y 18.7092 Z 0.0000
G01 X 0.9714 Y 19.6862 Z 0.0000
G01 X 1.0635 Y 20.5152 Z 0.0000
G01 X 1.2169 Y 21.1962 Z 0.0000
G01 X 1.4317 Y 21.7292 Z 0.0000
G01 X 1.7174 Y 22.1309 Z 0.0000
G01 X 2.0822 Y 22.4177 Z 0.0000
G01 X 2.5264 Y 22.5899 Z 0.0000
G01 X 3.0497 Y 22.6472 Z 0.0000
G01 X 3.5600 Y 22.5890 Z 0.0000
G01 X 3.9928 Y 22.4142 Z 0.0000
G01 X 4.3480 Y 22.1230 Z 0.0000
G01 X 4.6258 Y 21.7152 Z 0.0000
G01 X 4.8349 Y 21.1779 Z 0.0000
G01 X 4.9843 Y 20.4977 Z 0.0000
G01 X 5.0739 Y 19.6749 Z 0.0000
G01 X 5.1038 Y 18.7092 Z 0.0000
G01 X 5.0724 Y 17.7743 Z 0.0000
G01 X 4.9783 Y 16.9685 Z 0.0000
G01 X 4.8214 Y 16.2918 Z 0.0000
G01 X 4.6018 Y 15.7443 Z 0.0000
G01 X 4.3152 Y 15.3216 Z 0.0000
G01 X 3.9565 Y 15.0197 Z 0.0000
G01 X 3.5257 Y 14.8386 Z 0.0000
G01 X 3.0227 Y 14.7782 Z 0.0000
G01 X 2.5169 Y 14.8373 Z 0.0000
G00 Z 5.0000

(End cutting path id: path102)


(Start cutting path id: path102)
(Change tool to Default tool)

G00 Z 5.0000
G00 X 418.3257 Y 2.0477

G01 Z 0.0000 F 100.0000(Penetrate)
G01 X 418.9987 Y 2.2847 Z 0.0000 F 400.0000
G01 X 419.5717 Y 2.6797 Z 0.0000
G01 X 420.0437 Y 3.2327 Z 0.0000
G01 X 420.4127 Y 3.9361 Z 0.0000
G01 X 420.6767 Y 4.7812 Z 0.0000
G01 X 420.8347 Y 5.7681 Z 0.0000
G01 X 420.8877 Y 6.8967 Z 0.0000
G01 X 420.8377 Y 8.0420 Z 0.0000
G01 X 420.6867 Y 9.0378 Z 0.0000
G01 X 420.4357 Y 9.8840 Z 0.0000
G01 X 420.0837 Y 10.5808 Z 0.0000
G01 X 419.6267 Y 11.1250 Z 0.0000
G01 X 419.0597 Y 11.5138 Z 0.0000
G01 X 418.3817 Y 11.7470 Z 0.0000
G01 X 417.5927 Y 11.8247 Z 0.0000
G01 X 416.7827 Y 11.7478 Z 0.0000
G01 X 416.0897 Y 11.5170 Z 0.0000
G01 X 415.5127 Y 11.1323 Z 0.0000
G01 X 415.0527 Y 10.5938 Z 0.0000
G01 X 414.7017 Y 9.9014 Z 0.0000
G01 X 414.4507 Y 9.0545 Z 0.0000
G01 X 414.2997 Y 8.0529 Z 0.0000
G01 X 414.2497 Y 6.8967 Z 0.0000
G01 X 414.3017 Y 5.7624 Z 0.0000
G01 X 414.4567 Y 4.7725 Z 0.0000
G01 X 414.7147 Y 3.9269 Z 0.0000
G01 X 415.0767 Y 3.2257 Z 0.0000
G01 X 415.5417 Y 2.6758 Z 0.0000
G01 X 416.1087 Y 2.2830 Z 0.0000
G01 X 416.7787 Y 2.0473 Z 0.0000
G01 X 417.5517 Y 1.9687 Z 0.0000
G01 X 418.3257 Y 2.0477 Z 0.0000
G00 Z 5.0000

(End cutting path id: path102)


(Start cutting path id: path102)
(Change tool to Default tool)

G00 Z 5.0000
G00 X 417.0597 Y 3.0248

G01 Z 0.0000 F 100.0000(Penetrate)
G01 X 416.6267 Y 3.2020 Z 0.0000 F 400.0000
G01 X 416.2677 Y 3.4973 Z 0.0000
G01 X 415.9817 Y 3.9107 Z 0.0000
G01 X 415.7637 Y 4.4521 Z 0.0000
G01 X 415.6077 Y 5.1302 Z 0.0000
G01 X 415.5147 Y 5.9451 Z 0.0000
G01 X 415.4837 Y 6.8967 Z 0.0000
G01 X 415.5147 Y 7.8737 Z 0.0000
G01 X 415.6067 Y 8.7027 Z 0.0000
G01 X 415.7597 Y 9.3837 Z 0.0000
G01 X 415.9747 Y 9.9168 Z 0.0000
G01 X 416.2607 Y 10.3184 Z 0.0000
G01 X 416.6247 Y 10.6053 Z 0.0000
G01 X 417.0697 Y 10.7774 Z 0.0000
G01 X 417.5927 Y 10.8348 Z 0.0000
G01 X 418.1027 Y 10.7765 Z 0.0000
G01 X 418.5357 Y 10.6017 Z 0.0000
G01 X 418.8907 Y 10.3105 Z 0.0000
G01 X 419.1687 Y 9.9028 Z 0.0000
G01 X 419.3777 Y 9.3654 Z 0.0000
G01 X 419.5267 Y 8.6852 Z 0.0000
G01 X 419.6167 Y 7.8623 Z 0.0000
G01 X 419.6467 Y 6.8967 Z 0.0000
G01 X 419.6157 Y 5.9618 Z 0.0000
G01 X 419.5207 Y 5.1560 Z 0.0000
G01 X 419.3647 Y 4.4793 Z 0.0000
G01 X 419.1447 Y 3.9317 Z 0.0000
G01 X 418.8577 Y 3.5091 Z 0.0000
G01 X 418.4997 Y 3.2072 Z 0.0000
G01 X 418.0687 Y 3.0261 Z 0.0000
G01 X 417.5657 Y 2.9657 Z 0.0000
G01 X 417.0597 Y 3.0248 Z 0.0000
G00 Z 5.0000

(End cutting path id: path102)


(Start cutting path id: path102)
(Change tool to Default tool)

G00 Z 5.0000
G00 X 360.7707 Y 2.0144

G01 Z 0.0000 F 100.0000(Penetrate)
G01 X 361.4157 Y 2.1515 Z 0.0000 F 400.0000
G01 X 361.9717 Y 2.3799 Z 0.0000
G01 X 362.4367 Y 2.6997 Z 0.0000
G01 X 362.8047 Y 3.1033 Z 0.0000
G01 X 363.0677 Y 3.5820 Z 0.0000
G01 X 363.2247 Y 4.1358 Z 0.0000
G01 X 363.2777 Y 4.7647 Z 0.0000
G01 X 363.2407 Y 5.2065 Z 0.0000
G01 X 363.1287 Y 5.6090 Z 0.0000
G01 X 362.9417 Y 5.9720 Z 0.0000
G01 X 362.6807 Y 6.2957 Z 0.0000
G01 X 362.3527 Y 6.5695 Z 0.0000
G01 X 361.9657 Y 6.7817 Z 0.0000
G01 X 361.5187 Y 6.9325 Z 0.0000
G01 X 361.0127 Y 7.0217 Z 0.0000
G01 X 361.0127 Y 7.0487 Z 0.0000
G01 X 361.4717 Y 7.1731 Z 0.0000
G01 X 361.8727 Y 7.3435 Z 0.0000
G01 X 362.2157 Y 7.5597 Z 0.0000
G01 X 362.5007 Y 7.8217 Z 0.0000
G01 X 362.7247 Y 8.1285 Z 0.0000
G01 X 362.8847 Y 8.4780 Z 0.0000
G01 X 362.9807 Y 8.8701 Z 0.0000
G01 X 363.0127 Y 9.3048 Z 0.0000
G01 X 362.9627 Y 9.8665 Z 0.0000
G01 X 362.8137 Y 10.3628 Z 0.0000
G01 X 362.5647 Y 10.7935 Z 0.0000
G01 X 362.2157 Y 11.1588 Z 0.0000
G01 X 361.7777 Y 11.4501 Z 0.0000
G01 X 361.2597 Y 11.6582 Z 0.0000
G01 X 360.6607 Y 11.7831 Z 0.0000
G01 X 359.9817 Y 11.8247 Z 0.0000
G01 X 359.3537 Y 11.7836 Z 0.0000
G01 X 358.7857 Y 11.6602 Z 0.0000
G01 X 358.2767 Y 11.4546 Z 0.0000
G01 X 357.8287 Y 11.1668 Z 0.0000
G01 X 357.4537 Y 10.8060 Z 0.0000
G01 X 357.1667 Y 10.3808 Z 0.0000
G01 X 356.9677 Y 9.8910 Z 0.0000
G01 X 356.8557 Y 9.3368 Z 0.0000
G01 X 358.0827 Y 9.2417 Z 0.0000
G01 X 358.1497 Y 9.5966 Z 0.0000
G01 X 358.2677 Y 9.9090 Z 0.0000
G01 X 358.4387 Y 10.1791 Z 0.0000
G01 X 358.6617 Y 10.4068 Z 0.0000
G01 X 358.9307 Y 10.5879 Z 0.0000
G01 X 359.2377 Y 10.7173 Z 0.0000
G01 X 359.5837 Y 10.7949 Z 0.0000
G01 X 359.9677 Y 10.8208 Z 0.0000
G01 X 360.3847 Y 10.7931 Z 0.0000
G01 X 360.7477 Y 10.7103 Z 0.0000
G01 X 361.0547 Y 10.5721 Z 0.0000
G01 X 361.3077 Y 10.3788 Z 0.0000
G01 X 361.5047 Y 10.1382 Z 0.0000
G01 X 361.6457 Y 9.8575 Z 0.0000
G01 X 361.7307 Y 9.5367 Z 0.0000
G01 X 361.7587 Y 9.1758 Z 0.0000
G01 X 361.7237 Y 8.8121 Z 0.0000
G01 X 361.6207 Y 8.4902 Z 0.0000
G01 X 361.4477 Y 8.2101 Z 0.0000
G01 X 361.2057 Y 7.9717 Z 0.0000
G01 X 360.9007 Y 7.7814 Z 0.0000
G01 X 360.5407 Y 7.6455 Z 0.0000
G01 X 360.1227 Y 7.5639 Z 0.0000
G01 X 359.6497 Y 7.5367 Z 0.0000
G01 X 358.9847 Y 7.5367 Z 0.0000
G01 X 358.9847 Y 6.4787 Z 0.0000
G01 X 359.6767 Y 6.4787 Z 0.0000
G01 X 360.2097 Y 6.4510 Z 0.0000
G01 X 360.6757 Y 6.3680 Z 0.0000
G01 X 361.0757 Y 6.2295 Z 0.0000
G01 X 361.4087 Y 6.0357 Z 0.0000
G01 X 361.6717 Y 5.7930 Z 0.0000
G01 X 361.8587 Y 5.5067 Z 0.0000
G01 X 361.9717 Y 5.1770 Z 0.0000
G01 X 362.0087 Y 4.8037 Z 0.0000
G01 X 361.9757 Y 4.3790 Z 0.0000
G01 X 361.8777 Y 4.0100 Z 0.0000
G01 X 361.7127 Y 3.6965 Z 0.0000
G01 X 361.4827 Y 3.4387 Z 0.0000
G01 X 361.1957 Y 3.2375 Z 0.0000
G01 X 360.8587 Y 3.0937 Z 0.0000
G01 X 360.4717 Y 3.0075 Z 0.0000
G01 X 360.0357 Y 2.9787 Z 0.0000
G01 X 359.2167 Y 3.0847 Z 0.0000
G01 X 358.5967 Y 3.4027 Z 0.0000
G01 X 358.1757 Y 3.9327 Z 0.0000
G01 X 357.9537 Y 4.6747 Z 0.0000
G01 X 356.6927 Y 4.5597 Z 0.0000
G01 X 356.8177 Y 3.9579 Z 0.0000
G01 X 357.0307 Y 3.4345 Z 0.0000
G01 X 357.3317 Y 2.9894 Z 0.0000
G01 X 357.7197 Y 2.6227 Z 0.0000
G01 X 358.1887 Y 2.3366 Z 0.0000
G01 X 358.7317 Y 2.1322 Z 0.0000
G01 X 359.3467 Y 2.0096 Z 0.0000
G01 X 360.0357 Y 1.9687 Z 0.0000
G01 X 360.7707 Y 2.0144 Z 0.0000
G00 Z 5.0000

(End cutting path id: path102)


(Start cutting path id: path102)
(Change tool to Default tool)

G00 Z 5.0000
G00 X 718.3257 Y 2.0477

G01 Z 0.0000 F 100.0000(Penetrate)
G01 X 718.9987 Y 2.2847 Z 0.0000 F 400.0000
G01 X 719.5717 Y 2.6797 Z 0.0000
G01 X 720.0437 Y 3.2327 Z 0.0000
G01 X 720.4127 Y 3.9361 Z 0.0000
G01 X 720.6767 Y 4.7812 Z 0.0000
G01 X 720.8347 Y 5.7681 Z 0.0000
G01 X 720.8877 Y 6.8967 Z 0.0000
G01 X 720.8377 Y 8.0420 Z 0.0000
G01 X 720.6867 Y 9.0378 Z 0.0000
G01 X 720.4357 Y 9.8840 Z 0.0000
G01 X 720.0837 Y 10.5808 Z 0.0000
G01 X 719.6267 Y 11.1250 Z 0.0000
G01 X 719.0597 Y 11.5138 Z 0.0000
G01 X 718.3817 Y 11.7470 Z 0.0000
G01 X 717.5927 Y 11.8247 Z 0.0000
G01 X 716.7827 Y 11.7478 Z 0.0000
G01 X 716.0897 Y 11.5170 Z 0.0000
G01 X 715.5127 Y 11.1323 Z 0.0000
G01 X 715.0527 Y 10.5938 Z 0.0000
G01 X 714.7017 Y 9.9014 Z 0.0000
G01 X 714.4507 Y 9.0545 Z 0.0000
G01 X 714.2997 Y 8.0529 Z 0.0000
G01 X 714.2497 Y 6.8967 Z 0.0000
G01 X 714.3017 Y 5.7624 Z 0.0000
G01 X 714.4567 Y 4.7725 Z 0.0000
G01 X 714.7147 Y 3.9269 Z 0.0000
G01 X 715.0767 Y 3.2257 Z 0.0000
G01 X 715.5417 Y 2.6758 Z 0.0000
G01 X 716.1087 Y 2.2830 Z 0.0000
G01 X 716.7787 Y 2.0473 Z 0.0000
G01 X 717.5517 Y 1.9687 Z 0.0000
G01 X 718.3257 Y 2.0477 Z 0.0000
G00 Z 5.0000

(End cutting path id: path102)


(Start cutting path id: path102)
(Change tool to Default tool)

G00 Z 5.0000
G00 X 717.0597 Y 3.0248

G01 Z 0.0000 F 100.0000(Penetrate)
G01 X 716.6267 Y 3.2020 Z 0.0000 F 400.0000
G01 X 716.2677 Y 3.4973 Z 0.0000
G01 X 715.9817 Y 3.9107 Z 0.0000
G01 X 715.7637 Y 4.4521 Z 0.0000
G01 X 715.6077 Y 5.1302 Z 0.0000
G01 X 715.5147 Y 5.9451 Z 0.0000
G01 X 715.4837 Y 6.8967 Z 0.0000
G01 X 715.5147 Y 7.8737 Z 0.0000
G01 X 715.6067 Y 8.7027 Z 0.0000
G01 X 715.7597 Y 9.3837 Z 0.0000
G01 X 715.9747 Y 9.9168 Z 0.0000
G01 X 716.2607 Y 10.3184 Z 0.0000
G01 X 716.6247 Y 10.6053 Z 0.0000
G01 X 717.0697 Y 10.7774 Z 0.0000
G01 X 717.5927 Y 10.8348 Z 0.0000
G01 X 718.1027 Y 10.7765 Z 0.0000
G01 X 718.5357 Y 10.6017 Z 0.0000
G01 X 718.8907 Y 10.3105 Z 0.0000
G01 X 719.1687 Y 9.9028 Z 0.0000
G01 X 719.3777 Y 9.3654 Z 0.0000
G01 X 719.5267 Y 8.6852 Z 0.0000
G01 X 719.6167 Y 7.8623 Z 0.0000
G01 X 719.6467 Y 6.8967 Z 0.0000
G01 X 719.6157 Y 5.9618 Z 0.0000
G01 X 719.5207 Y 5.1560 Z 0.0000
G01 X 719.3647 Y 4.4793 Z 0.0000
G01 X 719.1447 Y 3.9317 Z 0.0000
G01 X 718.8577 Y 3.5091 Z 0.0000
G01 X 718.4997 Y 3.2072 Z 0.0000
G01 X 718.0687 Y 3.0261 Z 0.0000
G01 X 717.5657 Y 2.9657 Z 0.0000
G01 X 717.0597 Y 3.0248 Z 0.0000
G00 Z 5.0000

(End cutting path id: path102)


(Start cutting path id: path102)
(Change tool to Default tool)

G00 Z 5.0000
G00 X 14.5540 Y 2.0477

G01 Z 0.0000 F 100.0000(Penetrate)
G01 X 15.2272 Y 2.2847 Z 0.0000 F 400.0000
G01 X 15.8000 Y 2.6797 Z 0.0000
G01 X 16.2722 Y 3.2327 Z 0.0000
G01 X 16.6415 Y 3.9361 Z 0.0000
G01 X 16.9052 Y 4.7812 Z 0.0000
G01 X 17.0635 Y 5.7681 Z 0.0000
G01 X 17.1162 Y 6.8967 Z 0.0000
G01 X 17.0660 Y 8.0420 Z 0.0000
G01 X 16.9152 Y 9.0378 Z 0.0000
G01 X 16.6640 Y 9.8840 Z 0.0000
G01 X 16.3122 Y 10.5808 Z 0.0000
G01 X 15.8554 Y 11.1250 Z 0.0000
G01 X 15.2880 Y 11.5138 Z 0.0000
G01 X 14.6099 Y 11.7470 Z 0.0000
G01 X 13.8212 Y 11.8247 Z 0.0000
G01 X 13.0115 Y 11.7478 Z 0.0000
G01 X 12.3183 Y 11.5170 Z 0.0000
G01 X 11.7415 Y 11.1323 Z 0.0000
G01 X 11.2812 Y 10.5938 Z 0.0000
G01 X 10.9299 Y 9.9014 Z 0.0000
G01 X 10.6790 Y 9.0545 Z 0.0000
G01 X 10.5284 Y 8.0529 Z 0.0000
G01 X 10.4783 Y 6.8967 Z 0.0000
G01 X 10.5299 Y 5.7624 Z 0.0000
G01 X 10.6850 Y 4.7725 Z 0.0000
G01 X 10.9434 Y 3.9269 Z 0.0000
G01 X 11.3053 Y 3.2257 Z 0.0000
G01 X 11.7701 Y 2.6758 Z 0.0000
G01 X 12.3375 Y 2.2830 Z 0.0000
G01 X 13.0076 Y 2.0473 Z 0.0000
G01 X 13.7802 Y 1.9687 Z 0.0000
G01 X 14.5540 Y 2.0477 Z 0.0000
G00 Z 5.0000

(End cutting path id: path102)


(Start cutting path id: path102)
(Change tool to Default tool)

G00 Z 5.0000
G00 X 13.2884 Y 3.0248

G01 Z 0.0000 F 100.0000(Penetrate)
G01 X 12.8557 Y 3.2020 Z 0.0000 F 400.0000
G01 X 12.4964 Y 3.4973 Z 0.0000
G01 X 12.2102 Y 3.9107 Z 0.0000
G01 X 11.9924 Y 4.4521 Z 0.0000
G01 X 11.8367 Y 5.1302 Z 0.0000
G01 X 11.7434 Y 5.9451 Z 0.0000
G01 X 11.7122 Y 6.8967 Z 0.0000
G01 X 11.7429 Y 7.8737 Z 0.0000
G01 X 11.8350 Y 8.7027 Z 0.0000
G01 X 11.9884 Y 9.3837 Z 0.0000
G01 X 12.2032 Y 9.9168 Z 0.0000
G01 X 12.4889 Y 10.3184 Z 0.0000
G01 X 12.8537 Y 10.6053 Z 0.0000
G01 X 13.2979 Y 10.7774 Z 0.0000
G01 X 13.8212 Y 10.8348 Z 0.0000
G01 X 14.3315 Y 10.7765 Z 0.0000
G01 X 14.7642 Y 10.6017 Z 0.0000
G01 X 15.1195 Y 10.3105 Z 0.0000
G01 X 15.3972 Y 9.9028 Z 0.0000
G01 X 15.6064 Y 9.3654 Z 0.0000
G01 X 15.7557 Y 8.6852 Z 0.0000
G01 X 15.8454 Y 7.8623 Z 0.0000
G01 X 15.8752 Y 6.8967 Z 0.0000
G01 X 15.8439 Y 5.9618 Z 0.0000
G01 X 15.7497 Y 5.1560 Z 0.0000
G01 X 15.5929 Y 4.4793 Z 0.0000
G01 X 15.3732 Y 3.9317 Z 0.0000
G01 X 15.0867 Y 3.5091 Z 0.0000
G01 X 14.7280 Y 3.2072 Z 0.0000
G01 X 14.2972 Y 3.0261 Z 0.0000
G01 X 13.7942 Y 2.9657 Z 0.0000
G01 X 13.2884 Y 3.0248 Z 0.0000
G00 Z 5.0000

(End cutting path id: path102)


(Start cutting path id: path102)
(Change tool to Default tool)

G00 Z 5.0000
G00 X 118.3257 Y 2.0477

G01 Z 0.0000 F 100.0000(Penetrate)
G01 X 118.9987 Y 2.2847 Z 0.0000 F 400.0000
G01 X 119.5717 Y 2.6797 Z 0.0000
G01 X 120.0437 Y 3.2327 Z 0.0000
G01 X 120.4127 Y 3.9361 Z 0.0000
G01 X 120.6767 Y 4.7812 Z 0.0000
G01 X 120.8347 Y 5.7681 Z 0.0000
G01 X 120.8877 Y 6.8967 Z 0.0000
G01 X 120.8377 Y 8.0420 Z 0.0000
G01 X 120.6867 Y 9.0378 Z 0.0000
G01 X 120.4357 Y 9.8840 Z 0.0000
G01 X 120.0837 Y 10.5808 Z 0.0000
G01 X 119.6267 Y 11.1250 Z 0.0000
G01 X 119.0597 Y 11.5138 Z 0.0000
G01 X 118.3817 Y 11.7470 Z 0.0000
G01 X 117.5927 Y 11.8247 Z 0.0000
G01 X 116.7827 Y 11.7478 Z 0.0000
G01 X 116.0897 Y 11.5170 Z 0.0000
G01 X 115.5127 Y 11.1323 Z 0.0000
G01 X 115.0527 Y 10.5938 Z 0.0000
G01 X 114.7017 Y 9.9014 Z 0.0000
G01 X 114.4507 Y 9.0545 Z 0.0000
G01 X 114.2997 Y 8.0529 Z 0.0000
G01 X 114.2497 Y 6.8967 Z 0.0000
G01 X 114.3017 Y 5.7624 Z 0.0000
G01 X 114.4567 Y 4.7725 Z 0.0000
G01 X 114.7147 Y 3.9269 Z 0.0000
G01 X 115.0767 Y 3.2257 Z 0.0000
G01 X 115.5417 Y 2.6758 Z 0.0000
G01 X 116.1087 Y 2.2830 Z 0.0000
G01 X 116.7787 Y 2.0473 Z 0.0000
G01 X 117.5517 Y 1.9687 Z 0.0000
G01 X 118.3257 Y 2.0477 Z 0.0000
G00 Z 5.0000

(End cutting path id: path102)


(Start cutting path id: path102)
(Change tool to Default tool)

G00 Z 5.0000
G00 X 117.0597 Y 3.0248

G01 Z 0.0000 F 100.0000(Penetrate)
G01 X 116.6267 Y 3.2020 Z 0.0000 F 400.0000
G01 X 116.2677 Y 3.4973 Z 0.0000
G01 X 115.9817 Y 3.9107 Z 0.0000
G01 X 115.7637 Y 4.4521 Z 0.0000
G01 X 115.6077 Y 5.1302 Z 0.0000
G01 X 115.5147 Y 5.9451 Z 0.0000
G01 X 115.4837 Y 6.8967 Z 0.0000
G01 X 115.5147 Y 7.8737 Z 0.0000
G01 X 115.6067 Y 8.7027 Z 0.0000
G01 X 115.7597 Y 9.3837 Z 0.0000
G01 X 115.9747 Y 9.9168 Z 0.0000
G01 X 116.2607 Y 10.3184 Z 0.0000
G01 X 116.6247 Y 10.6053 Z 0.0000
G01 X 117.0697 Y 10.7774 Z 0.0000
G01 X 117.5927 Y 10.8348 Z 0.0000
G01 X 118.1027 Y 10.7765 Z 0.0000
G01 X 118.5357 Y 10.6017 Z 0.0000
G01 X 118.8907 Y 10.3105 Z 0.0000
G01 X 119.1687 Y 9.9028 Z 0.0000
G01 X 119.3777 Y 9.3654 Z 0.0000
G01 X 119.5267 Y 8.6852 Z 0.0000
G01 X 119.6167 Y 7.8623 Z 0.0000
G01 X 119.6467 Y 6.8967 Z 0.0000
G01 X 119.6157 Y 5.9618 Z 0.0000
G01 X 119.5207 Y 5.1560 Z 0.0000
G01 X 119.3647 Y 4.4793 Z 0.0000
G01 X 119.1447 Y 3.9317 Z 0.0000
G01 X 118.8577 Y 3.5091 Z 0.0000
G01 X 118.4997 Y 3.2072 Z 0.0000
G01 X 118.0687 Y 3.0261 Z 0.0000
G01 X 117.5657 Y 2.9657 Z 0.0000
G01 X 117.0597 Y 3.0248 Z 0.0000
G00 Z 5.0000

(End cutting path id: path102)


(Start cutting path id: path102)
(Change tool to Default tool)

G00 Z 5.0000
G00 X 660.8747 Y 2.0236

G01 Z 0.0000 F 100.0000(Penetrate)
G01 X 661.4807 Y 2.1882 Z 0.0000 F 400.0000
G01 X 662.0077 Y 2.4626 Z 0.0000
G01 X 662.4567 Y 2.8467 Z 0.0000
G01 X 662.8157 Y 3.3256 Z 0.0000
G01 X 663.0727 Y 3.8845 Z 0.0000
G01 X 663.2267 Y 4.5232 Z 0.0000
G01 X 663.2777 Y 5.2417 Z 0.0000
G01 X 663.2287 Y 5.9070 Z 0.0000
G01 X 663.0837 Y 6.5007 Z 0.0000
G01 X 662.8407 Y 7.0230 Z 0.0000
G01 X 662.5007 Y 7.4737 Z 0.0000
G01 X 662.0787 Y 7.8373 Z 0.0000
G01 X 661.5877 Y 8.0970 Z 0.0000
G01 X 661.0287 Y 8.2528 Z 0.0000
G01 X 660.4017 Y 8.3047 Z 0.0000
G01 X 660.0227 Y 8.2845 Z 0.0000
G01 X 659.6667 Y 8.2240 Z 0.0000
G01 X 659.3317 Y 8.1230 Z 0.0000
G01 X 659.0187 Y 7.9817 Z 0.0000
G01 X 658.7337 Y 7.8023 Z 0.0000
G01 X 658.4827 Y 7.5860 Z 0.0000
G01 X 658.2657 Y 7.3328 Z 0.0000
G01 X 658.0827 Y 7.0427 Z 0.0000
G01 X 658.1187 Y 7.9107 Z 0.0000
G01 X 658.2257 Y 8.6698 Z 0.0000
G01 X 658.4047 Y 9.3198 Z 0.0000
G01 X 658.6557 Y 9.8608 Z 0.0000
G01 X 658.9717 Y 10.2869 Z 0.0000
G01 X 659.3467 Y 10.5913 Z 0.0000
G01 X 659.7807 Y 10.7739 Z 0.0000
G01 X 660.2737 Y 10.8348 Z 0.0000
G01 X 660.8277 Y 10.7619 Z 0.0000
G01 X 661.2737 Y 10.5432 Z 0.0000
G01 X 661.6137 Y 10.1789 Z 0.0000
G01 X 661.8467 Y 9.6688 Z 0.0000
G01 X 663.0127 Y 9.8788 Z 0.0000
G01 X 662.6317 Y 10.7301 Z 0.0000
G01 X 662.0497 Y 11.3382 Z 0.0000
G01 X 661.2687 Y 11.7031 Z 0.0000
G01 X 660.2867 Y 11.8247 Z 0.0000
G01 X 659.5137 Y 11.7414 Z 0.0000
G01 X 658.8337 Y 11.4915 Z 0.0000
G01 X 658.2487 Y 11.0749 Z 0.0000
G01 X 657.7567 Y 10.4917 Z 0.0000
G01 X 657.3687 Y 9.7536 Z 0.0000
G01 X 657.0907 Y 8.8710 Z 0.0000
G01 X 656.9247 Y 7.8440 Z 0.0000
G01 X 656.8687 Y 6.6727 Z 0.0000
G01 X 656.9217 Y 5.5921 Z 0.0000
G01 X 657.0827 Y 4.6485 Z 0.0000
G01 X 657.3487 Y 3.8416 Z 0.0000
G01 X 657.7227 Y 3.1717 Z 0.0000
G01 X 658.1977 Y 2.6454 Z 0.0000
G01 X 658.7677 Y 2.2695 Z 0.0000
G01 X 659.4317 Y 2.0439 Z 0.0000
G01 X 660.1917 Y 1.9687 Z 0.0000
G01 X 660.8747 Y 2.0236 Z 0.0000
G00 Z 5.0000

(End cutting path id: path102)


(Start cutting path id: path102)
(Change tool to Default tool)

G00 Z 5.0000
G00 X 659.7437 Y 2.9960

G01 Z 0.0000 F 100.0000(Penetrate)
G01 X 659.3737 Y 3.1290 Z 0.0000 F 400.0000
G01 X 659.0427 Y 3.3505 Z 0.0000
G01 X 658.7507 Y 3.6607 Z 0.0000
G01 X 658.5117 Y 4.0403 Z 0.0000
G01 X 658.3417 Y 4.4702 Z 0.0000
G01 X 658.2387 Y 4.9503 Z 0.0000
G01 X 658.2047 Y 5.4807 Z 0.0000
G01 X 658.2377 Y 5.8966 Z 0.0000
G01 X 658.3357 Y 6.2652 Z 0.0000
G01 X 658.4997 Y 6.5866 Z 0.0000
G01 X 658.7297 Y 6.8607 Z 0.0000
G01 X 659.0137 Y 7.0799 Z 0.0000
G01 X 659.3377 Y 7.2365 Z 0.0000
G01 X 659.7037 Y 7.3304 Z 0.0000
G01 X 660.1107 Y 7.3617 Z 0.0000
G01 X 660.5397 Y 7.3263 Z 0.0000
G01 X 660.9197 Y 7.2202 Z 0.0000
G01 X 661.2487 Y 7.0433 Z 0.0000
G01 X 661.5277 Y 6.7957 Z 0.0000
G01 X 661.7507 Y 6.4833 Z 0.0000
G01 X 661.9097 Y 6.1112 Z 0.0000
G01 X 662.0047 Y 5.6793 Z 0.0000
G01 X 662.0367 Y 5.1877 Z 0.0000
G01 X 662.0057 Y 4.6941 Z 0.0000
G01 X 661.9117 Y 4.2562 Z 0.0000
G01 X 661.7547 Y 3.8741 Z 0.0000
G01 X 661.5347 Y 3.5477 Z 0.0000
G01 X 661.2597 Y 3.2870 Z 0.0000
G01 X 660.9377 Y 3.1007 Z 0.0000
G01 X 660.5687 Y 2.9890 Z 0.0000
G01 X 660.1517 Y 2.9517 Z 0.0000
G01 X 659.7437 Y 2.9960 Z 0.0000
G00 Z 5.0000

(End cutting path id: path102)


(Start cutting path id: path102)
(Change tool to Default tool)

G00 Z 5.0000
G00 X 318.3257 Y 2.0477

G01 Z 0.0000 F 100.0000(Penetrate)
G01 X 318.9987 Y 2.2847 Z 0.0000 F 400.0000
G01 X 319.5717 Y 2.6797 Z 0.0000
G01 X 320.0437 Y 3.2327 Z 0.0000
G01 X 320.4127 Y 3.9361 Z 0.0000
G01 X 320.6767 Y 4.7812 Z 0.0000
G01 X 320.8347 Y 5.7681 Z 0.0000
G01 X 320.8877 Y 6.8967 Z 0.0000
G01 X 320.8377 Y 8.0420 Z 0.0000
G01 X 320.6867 Y 9.0378 Z 0.0000
G01 X 320.4357 Y 9.8840 Z 0.0000
G01 X 320.0837 Y 10.5808 Z 0.0000
G01 X 319.6267 Y 11.1250 Z 0.0000
G01 X 319.0597 Y 11.5138 Z 0.0000
G01 X 318.3817 Y 11.7470 Z 0.0000
G01 X 317.5927 Y 11.8247 Z 0.0000
G01 X 316.7827 Y 11.7478 Z 0.0000
G01 X 316.0897 Y 11.5170 Z 0.0000
G01 X 315.5127 Y 11.1323 Z 0.0000
G01 X 315.0527 Y 10.5938 Z 0.0000
G01 X 314.7017 Y 9.9014 Z 0.0000
G01 X 314.4507 Y 9.0545 Z 0.0000
G01 X 314.2997 Y 8.0529 Z 0.0000
G01 X 314.2497 Y 6.8967 Z 0.0000
G01 X 314.3017 Y 5.7624 Z 0.0000
G01 X 314.4567 Y 4.7725 Z 0.0000
G01 X 314.7147 Y 3.9269 Z 0.0000
G01 X 315.0767 Y 3.2257 Z 0.0000
G01 X 315.5417 Y 2.6758 Z 0.0000
G01 X 316.1087 Y 2.2830 Z 0.0000
G01 X 316.7787 Y 2.0473 Z 0.0000
G01 X 317.5517 Y 1.9687 Z 0.0000
G01 X 318.3257 Y 2.0477 Z 0.0000
G00 Z 5.0000

(End cutting path id: path102)


(Start cutting path id: path102)
(Change tool to Default tool)

G00 Z 5.0000
G00 X 317.0597 Y 3.0248

G01 Z 0.0000 F 100.0000(Penetrate)
G01 X 316.6267 Y 3.2020 Z 0.0000 F 400.0000
G01 X 316.2677 Y 3.4973 Z 0.0000
G01 X 315.9817 Y 3.9107 Z 0.0000
G01 X 315.7637 Y 4.4521 Z 0.0000
G01 X 315.6077 Y 5.1302 Z 0.0000
G01 X 315.5147 Y 5.9451 Z 0.0000
G01 X 315.4837 Y 6.8967 Z 0.0000
G01 X 315.5147 Y 7.8737 Z 0.0000
G01 X 315.6067 Y 8.7027 Z 0.0000
G01 X 315.7597 Y 9.3837 Z 0.0000
G01 X 315.9747 Y 9.9168 Z 0.0000
G01 X 316.2607 Y 10.3184 Z 0.0000
G01 X 316.6247 Y 10.6053 Z 0.0000
G01 X 317.0697 Y 10.7774 Z 0.0000
G01 X 317.5927 Y 10.8348 Z 0.0000
G01 X 318.1027 Y 10.7765 Z 0.0000
G01 X 318.5357 Y 10.6017 Z 0.0000
G01 X 318.8907 Y 10.3105 Z 0.0000
G01 X 319.1687 Y 9.9028 Z 0.0000
G01 X 319.3777 Y 9.3654 Z 0.0000
G01 X 319.5267 Y 8.6852 Z 0.0000
G01 X 319.6167 Y 7.8623 Z 0.0000
G01 X 319.6467 Y 6.8967 Z 0.0000
G01 X 319.6157 Y 5.9618 Z 0.0000
G01 X 319.5207 Y 5.1560 Z 0.0000
G01 X 319.3647 Y 4.4793 Z 0.0000
G01 X 319.1447 Y 3.9317 Z 0.0000
G01 X 318.8577 Y 3.5091 Z 0.0000
G01 X 318.4997 Y 3.2072 Z 0.0000
G01 X 318.0687 Y 3.0261 Z 0.0000
G01 X 317.5657 Y 2.9657 Z 0.0000
G01 X 317.0597 Y 3.0248 Z 0.0000
G00 Z 5.0000

(End cutting path id: path102)


(Start cutting path id: path102)
(Change tool to Default tool)

G00 Z 5.0000
G00 X 618.3257 Y 2.0477

G01 Z 0.0000 F 100.0000(Penetrate)
G01 X 618.9987 Y 2.2847 Z 0.0000 F 400.0000
G01 X 619.5717 Y 2.6797 Z 0.0000
G01 X 620.0437 Y 3.2327 Z 0.0000
G01 X 620.4127 Y 3.9361 Z 0.0000
G01 X 620.6767 Y 4.7812 Z 0.0000
G01 X 620.8347 Y 5.7681 Z 0.0000
G01 X 620.8877 Y 6.8967 Z 0.0000
G01 X 620.8377 Y 8.0420 Z 0.0000
G01 X 620.6867 Y 9.0378 Z 0.0000
G01 X 620.4357 Y 9.8840 Z 0.0000
G01 X 620.0837 Y 10.5808 Z 0.0000
G01 X 619.6267 Y 11.1250 Z 0.0000
G01 X 619.0597 Y 11.5138 Z 0.0000
G01 X 618.3817 Y 11.7470 Z 0.0000
G01 X 617.5927 Y 11.8247 Z 0.0000
G01 X 616.7827 Y 11.7478 Z 0.0000
G01 X 616.0897 Y 11.5170 Z 0.0000
G01 X 615.5127 Y 11.1323 Z 0.0000
G01 X 615.0527 Y 10.5938 Z 0.0000
G01 X 614.7017 Y 9.9014 Z 0.0000
G01 X 614.4507 Y 9.0545 Z 0.0000
G01 X 614.2997 Y 8.0529 Z 0.0000
G01 X 614.2497 Y 6.8967 Z 0.0000
G01 X 614.3017 Y 5.7624 Z 0.0000
G01 X 614.4567 Y 4.7725 Z 0.0000
G01 X 614.7147 Y 3.9269 Z 0.0000
G01 X 615.0767 Y 3.2257 Z 0.0000
G01 X 615.5417 Y 2.6758 Z 0.0000
G01 X 616.1087 Y 2.2830 Z 0.0000
G01 X 616.7787 Y 2.0473 Z 0.0000
G01 X 617.5517 Y 1.9687 Z 0.0000
G01 X 618.3257 Y 2.0477 Z 0.0000
G00 Z 5.0000

(End cutting path id: path102)


(Start cutting path id: path102)
(Change tool to Default tool)

G00 Z 5.0000
G00 X 617.0597 Y 3.0248

G01 Z 0.0000 F 100.0000(Penetrate)
G01 X 616.6267 Y 3.2020 Z 0.0000 F 400.0000
G01 X 616.2677 Y 3.4973 Z 0.0000
G01 X 615.9817 Y 3.9107 Z 0.0000
G01 X 615.7637 Y 4.4521 Z 0.0000
G01 X 615.6077 Y 5.1302 Z 0.0000
G01 X 615.5147 Y 5.9451 Z 0.0000
G01 X 615.4837 Y 6.8967 Z 0.0000
G01 X 615.5147 Y 7.8737 Z 0.0000
G01 X 615.6067 Y 8.7027 Z 0.0000
G01 X 615.7597 Y 9.3837 Z 0.0000
G01 X 615.9747 Y 9.9168 Z 0.0000
G01 X 616.2607 Y 10.3184 Z 0.0000
G01 X 616.6247 Y 10.6053 Z 0.0000
G01 X 617.0697 Y 10.7774 Z 0.0000
G01 X 617.5927 Y 10.8348 Z 0.0000
G01 X 618.1027 Y 10.7765 Z 0.0000
G01 X 618.5357 Y 10.6017 Z 0.0000
G01 X 618.8907 Y 10.3105 Z 0.0000
G01 X 619.1687 Y 9.9028 Z 0.0000
G01 X 619.3777 Y 9.3654 Z 0.0000
G01 X 619.5267 Y 8.6852 Z 0.0000
G01 X 619.6167 Y 7.8623 Z 0.0000
G01 X 619.6467 Y 6.8967 Z 0.0000
G01 X 619.6157 Y 5.9618 Z 0.0000
G01 X 619.5207 Y 5.1560 Z 0.0000
G01 X 619.3647 Y 4.4793 Z 0.0000
G01 X 619.1447 Y 3.9317 Z 0.0000
G01 X 618.8577 Y 3.5091 Z 0.0000
G01 X 618.4997 Y 3.2072 Z 0.0000
G01 X 618.0687 Y 3.0261 Z 0.0000
G01 X 617.5657 Y 2.9657 Z 0.0000
G01 X 617.0597 Y 3.0248 Z 0.0000
G00 Z 5.0000

(End cutting path id: path102)


(Start cutting path id: path102)
(Change tool to Default tool)

G00 Z 5.0000
G00 X 610.8747 Y 2.0236

G01 Z 0.0000 F 100.0000(Penetrate)
G01 X 611.4807 Y 2.1882 Z 0.0000 F 400.0000
G01 X 612.0077 Y 2.4626 Z 0.0000
G01 X 612.4567 Y 2.8467 Z 0.0000
G01 X 612.8157 Y 3.3256 Z 0.0000
G01 X 613.0727 Y 3.8845 Z 0.0000
G01 X 613.2267 Y 4.5232 Z 0.0000
G01 X 613.2777 Y 5.2417 Z 0.0000
G01 X 613.2287 Y 5.9070 Z 0.0000
G01 X 613.0837 Y 6.5007 Z 0.0000
G01 X 612.8407 Y 7.0230 Z 0.0000
G01 X 612.5007 Y 7.4737 Z 0.0000
G01 X 612.0787 Y 7.8373 Z 0.0000
G01 X 611.5877 Y 8.0970 Z 0.0000
G01 X 611.0287 Y 8.2528 Z 0.0000
G01 X 610.4017 Y 8.3047 Z 0.0000
G01 X 610.0227 Y 8.2845 Z 0.0000
G01 X 609.6667 Y 8.2240 Z 0.0000
G01 X 609.3317 Y 8.1230 Z 0.0000
G01 X 609.0187 Y 7.9817 Z 0.0000
G01 X 608.7337 Y 7.8023 Z 0.0000
G01 X 608.4827 Y 7.5860 Z 0.0000
G01 X 608.2657 Y 7.3328 Z 0.0000
G01 X 608.0827 Y 7.0427 Z 0.0000
G01 X 608.1187 Y 7.9107 Z 0.0000
G01 X 608.2257 Y 8.6698 Z 0.0000
G01 X 608.4047 Y 9.3198 Z 0.0000
G01 X 608.6557 Y 9.8608 Z 0.0000
G01 X 608.9717 Y 10.2869 Z 0.0000
G01 X 609.3467 Y 10.5913 Z 0.0000
G01 X 609.7807 Y 10.7739 Z 0.0000
G01 X 610.2737 Y 10.8348 Z 0.0000
G01 X 610.8277 Y 10.7619 Z 0.0000
G01 X 611.2737 Y 10.5432 Z 0.0000
G01 X 611.6137 Y 10.1789 Z 0.0000
G01 X 611.8467 Y 9.6688 Z 0.0000
G01 X 613.0127 Y 9.8788 Z 0.0000
G01 X 612.6317 Y 10.7301 Z 0.0000
G01 X 612.0497 Y 11.3382 Z 0.0000
G01 X 611.2687 Y 11.7031 Z 0.0000
G01 X 610.2867 Y 11.8247 Z 0.0000
G01 X 609.5137 Y 11.7414 Z 0.0000
G01 X 608.8337 Y 11.4915 Z 0.0000
G01 X 608.2487 Y 11.0749 Z 0.0000
G01 X 607.7567 Y 10.4917 Z 0.0000
G01 X 607.3687 Y 9.7536 Z 0.0000
G01 X 607.0907 Y 8.8710 Z 0.0000
G01 X 606.9247 Y 7.8440 Z 0.0000
G01 X 606.8687 Y 6.6727 Z 0.0000
G01 X 606.9217 Y 5.5921 Z 0.0000
G01 X 607.0827 Y 4.6485 Z 0.0000
G01 X 607.3487 Y 3.8416 Z 0.0000
G01 X 607.7227 Y 3.1717 Z 0.0000
G01 X 608.1977 Y 2.6454 Z 0.0000
G01 X 608.7677 Y 2.2695 Z 0.0000
G01 X 609.4317 Y 2.0439 Z 0.0000
G01 X 610.1917 Y 1.9687 Z 0.0000
G01 X 610.8747 Y 2.0236 Z 0.0000
G00 Z 5.0000

(End cutting path id: path102)


(Start cutting path id: path102)
(Change tool to Default tool)

G00 Z 5.0000
G00 X 609.7437 Y 2.9960

G01 Z 0.0000 F 100.0000(Penetrate)
G01 X 609.3737 Y 3.1290 Z 0.0000 F 400.0000
G01 X 609.0427 Y 3.3505 Z 0.0000
G01 X 608.7507 Y 3.6607 Z 0.0000
G01 X 608.5117 Y 4.0403 Z 0.0000
G01 X 608.3417 Y 4.4702 Z 0.0000
G01 X 608.2387 Y 4.9503 Z 0.0000
G01 X 608.2047 Y 5.4807 Z 0.0000
G01 X 608.2377 Y 5.8966 Z 0.0000
G01 X 608.3357 Y 6.2652 Z 0.0000
G01 X 608.4997 Y 6.5866 Z 0.0000
G01 X 608.7297 Y 6.8607 Z 0.0000
G01 X 609.0137 Y 7.0799 Z 0.0000
G01 X 609.3377 Y 7.2365 Z 0.0000
G01 X 609.7037 Y 7.3304 Z 0.0000
G01 X 610.1107 Y 7.3617 Z 0.0000
G01 X 610.5397 Y 7.3263 Z 0.0000
G01 X 610.9197 Y 7.2202 Z 0.0000
G01 X 611.2487 Y 7.0433 Z 0.0000
G01 X 611.5277 Y 6.7957 Z 0.0000
G01 X 611.7507 Y 6.4833 Z 0.0000
G01 X 611.9097 Y 6.1112 Z 0.0000
G01 X 612.0047 Y 5.6793 Z 0.0000
G01 X 612.0367 Y 5.1877 Z 0.0000
G01 X 612.0057 Y 4.6941 Z 0.0000
G01 X 611.9117 Y 4.2562 Z 0.0000
G01 X 611.7547 Y 3.8741 Z 0.0000
G01 X 611.5347 Y 3.5477 Z 0.0000
G01 X 611.2597 Y 3.2870 Z 0.0000
G01 X 610.9377 Y 3.1007 Z 0.0000
G01 X 610.5687 Y 2.9890 Z 0.0000
G01 X 610.1517 Y 2.9517 Z 0.0000
G01 X 609.7437 Y 2.9960 Z 0.0000
G00 Z 5.0000

(End cutting path id: path102)


(Start cutting path id: path102)
(Change tool to Default tool)

G00 Z 5.0000
G00 X 310.7707 Y 2.0144

G01 Z 0.0000 F 100.0000(Penetrate)
G01 X 311.4157 Y 2.1515 Z 0.0000 F 400.0000
G01 X 311.9717 Y 2.3799 Z 0.0000
G01 X 312.4367 Y 2.6997 Z 0.0000
G01 X 312.8047 Y 3.1033 Z 0.0000
G01 X 313.0677 Y 3.5820 Z 0.0000
G01 X 313.2247 Y 4.1358 Z 0.0000
G01 X 313.2777 Y 4.7647 Z 0.0000
G01 X 313.2407 Y 5.2065 Z 0.0000
G01 X 313.1287 Y 5.6090 Z 0.0000
G01 X 312.9417 Y 5.9720 Z 0.0000
G01 X 312.6807 Y 6.2957 Z 0.0000
G01 X 312.3527 Y 6.5695 Z 0.0000
G01 X 311.9657 Y 6.7817 Z 0.0000
G01 X 311.5187 Y 6.9325 Z 0.0000
G01 X 311.0127 Y 7.0217 Z 0.0000
G01 X 311.0127 Y 7.0487 Z 0.0000
G01 X 311.4717 Y 7.1731 Z 0.0000
G01 X 311.8727 Y 7.3435 Z 0.0000
G01 X 312.2157 Y 7.5597 Z 0.0000
G01 X 312.5007 Y 7.8217 Z 0.0000
G01 X 312.7247 Y 8.1285 Z 0.0000
G01 X 312.8847 Y 8.4780 Z 0.0000
G01 X 312.9807 Y 8.8701 Z 0.0000
G01 X 313.0127 Y 9.3048 Z 0.0000
G01 X 312.9627 Y 9.8665 Z 0.0000
G01 X 312.8137 Y 10.3628 Z 0.0000
G01 X 312.5647 Y 10.7935 Z 0.0000
G01 X 312.2157 Y 11.1588 Z 0.0000
G01 X 311.7777 Y 11.4501 Z 0.0000
G01 X 311.2597 Y 11.6582 Z 0.0000
G01 X 310.6607 Y 11.7831 Z 0.0000
G01 X 309.9817 Y 11.8247 Z 0.0000
G01 X 309.3537 Y 11.7836 Z 0.0000
G01 X 308.7857 Y 11.6602 Z 0.0000
G01 X 308.2767 Y 11.4546 Z 0.0000
G01 X 307.8287 Y 11.1668 Z 0.0000
G01 X 307.4537 Y 10.8060 Z 0.0000
G01 X 307.1667 Y 10.3808 Z 0.0000
G01 X 306.9677 Y 9.8910 Z 0.0000
G01 X 306.8557 Y 9.3368 Z 0.0000
G01 X 308.0827 Y 9.2417 Z 0.0000
G01 X 308.1497 Y 9.5966 Z 0.0000
G01 X 308.2677 Y 9.9090 Z 0.0000
G01 X 308.4387 Y 10.1791 Z 0.0000
G01 X 308.6617 Y 10.4068 Z 0.0000
G01 X 308.9307 Y 10.5879 Z 0.0000
G01 X 309.2377 Y 10.7173 Z 0.0000
G01 X 309.5837 Y 10.7949 Z 0.0000
G01 X 309.9677 Y 10.8208 Z 0.0000
G01 X 310.3847 Y 10.7931 Z 0.0000
G01 X 310.7477 Y 10.7103 Z 0.0000
G01 X 311.0547 Y 10.5721 Z 0.0000
G01 X 311.3077 Y 10.3788 Z 0.0000
G01 X 311.5047 Y 10.1382 Z 0.0000
G01 X 311.6457 Y 9.8575 Z 0.0000
G01 X 311.7307 Y 9.5367 Z 0.0000
G01 X 311.7587 Y 9.1758 Z 0.0000
G01 X 311.7237 Y 8.8121 Z 0.0000
G01 X 311.6207 Y 8.4902 Z 0.0000
G01 X 311.4477 Y 8.2101 Z 0.0000
G01 X 311.2057 Y 7.9717 Z 0.0000
G01 X 310.9007 Y 7.7814 Z 0.0000
G01 X 310.5407 Y 7.6455 Z 0.0000
G01 X 310.1227 Y 7.5639 Z 0.0000
G01 X 309.6497 Y 7.5367 Z 0.0000
G01 X 308.9847 Y 7.5367 Z 0.0000
G01 X 308.9847 Y 6.4787 Z 0.0000
G01 X 309.6767 Y 6.4787 Z 0.0000
G01 X 310.2097 Y 6.4510 Z 0.0000
G01 X 310.6757 Y 6.3680 Z 0.0000
G01 X 311.0757 Y 6.2295 Z 0.0000
G01 X 311.4087 Y 6.0357 Z 0.0000
G01 X 311.6717 Y 5.7930 Z 0.0000
G01 X 311.8587 Y 5.5067 Z 0.0000
G01 X 311.9717 Y 5.1770 Z 0.0000
G01 X 312.0087 Y 4.8037 Z 0.0000
G01 X 311.9757 Y 4.3790 Z 0.0000
G01 X 311.8777 Y 4.0100 Z 0.0000
G01 X 311.7127 Y 3.6965 Z 0.0000
G01 X 311.4827 Y 3.4387 Z 0.0000
G01 X 311.1957 Y 3.2375 Z 0.0000
G01 X 310.8587 Y 3.0937 Z 0.0000
G01 X 310.4717 Y 3.0075 Z 0.0000
G01 X 310.0357 Y 2.9787 Z 0.0000
G01 X 309.2167 Y 3.0847 Z 0.0000
G01 X 308.5967 Y 3.4027 Z 0.0000
G01 X 308.1757 Y 3.9327 Z 0.0000
G01 X 307.9537 Y 4.6747 Z 0.0000
G01 X 306.6927 Y 4.5597 Z 0.0000
G01 X 306.8177 Y 3.9579 Z 0.0000
G01 X 307.0307 Y 3.4345 Z 0.0000
G01 X 307.3317 Y 2.9894 Z 0.0000
G01 X 307.7197 Y 2.6227 Z 0.0000
G01 X 308.1887 Y 2.3366 Z 0.0000
G01 X 308.7317 Y 2.1322 Z 0.0000
G01 X 309.3467 Y 2.0096 Z 0.0000
G01 X 310.0357 Y 1.9687 Z 0.0000
G01 X 310.7707 Y 2.0144 Z 0.0000
G00 Z 5.0000

(End cutting path id: path102)


(Start cutting path id: path102)
(Change tool to Default tool)

G00 Z 5.0000
G00 X 213.1887 Y 3.1347

G01 Z 0.0000 F 100.0000(Penetrate)
G01 X 208.2047 Y 3.1347 Z 0.0000 F 400.0000
G01 X 208.3227 Y 3.3751 Z 0.0000
G01 X 208.4727 Y 3.6202 Z 0.0000
G01 X 208.6547 Y 3.8701 Z 0.0000
G01 X 208.8687 Y 4.1247 Z 0.0000
G01 X 209.1197 Y 4.3896 Z 0.0000
G01 X 209.4107 Y 4.6702 Z 0.0000
G01 X 209.7407 Y 4.9666 Z 0.0000
G01 X 210.1107 Y 5.2787 Z 0.0000
G01 X 210.7617 Y 5.8189 Z 0.0000
G01 X 211.2987 Y 6.2835 Z 0.0000
G01 X 211.7207 Y 6.6724 Z 0.0000
G01 X 212.0287 Y 6.9857 Z 0.0000
G01 X 212.2647 Y 7.2616 Z 0.0000
G01 X 212.4687 Y 7.5375 Z 0.0000
G01 X 212.6427 Y 7.8131 Z 0.0000
G01 X 212.7847 Y 8.0887 Z 0.0000
G01 X 212.8967 Y 8.3646 Z 0.0000
G01 X 212.9757 Y 8.6415 Z 0.0000
G01 X 213.0237 Y 8.9192 Z 0.0000
G01 X 213.0397 Y 9.1978 Z 0.0000
G01 X 212.9907 Y 9.7913 Z 0.0000
G01 X 212.8457 Y 10.3130 Z 0.0000
G01 X 212.6027 Y 10.7628 Z 0.0000
G01 X 212.2627 Y 11.1408 Z 0.0000
G01 X 211.8327 Y 11.4400 Z 0.0000
G01 X 211.3197 Y 11.6537 Z 0.0000
G01 X 210.7227 Y 11.7820 Z 0.0000
G01 X 210.0427 Y 11.8247 Z 0.0000
G01 X 209.4147 Y 11.7824 Z 0.0000
G01 X 208.8467 Y 11.6552 Z 0.0000
G01 X 208.3377 Y 11.4434 Z 0.0000
G01 X 207.8897 Y 11.1467 Z 0.0000
G01 X 207.5147 Y 10.7785 Z 0.0000
G01 X 207.2277 Y 10.3517 Z 0.0000
G01 X 207.0287 Y 9.8665 Z 0.0000
G01 X 206.9167 Y 9.3228 Z 0.0000
G01 X 208.1637 Y 9.2078 Z 0.0000
G01 X 208.2337 Y 9.5693 Z 0.0000
G01 X 208.3557 Y 9.8880 Z 0.0000
G01 X 208.5307 Y 10.1638 Z 0.0000
G01 X 208.7567 Y 10.3967 Z 0.0000
G01 X 209.0267 Y 10.5822 Z 0.0000
G01 X 209.3317 Y 10.7148 Z 0.0000
G01 X 209.6697 Y 10.7943 Z 0.0000
G01 X 210.0427 Y 10.8208 Z 0.0000
G01 X 210.4307 Y 10.7934 Z 0.0000
G01 X 210.7737 Y 10.7115 Z 0.0000
G01 X 211.0717 Y 10.5749 Z 0.0000
G01 X 211.3247 Y 10.3837 Z 0.0000
G01 X 211.5267 Y 10.1436 Z 0.0000
G01 X 211.6707 Y 9.8590 Z 0.0000
G01 X 211.7567 Y 9.5301 Z 0.0000
G01 X 211.7857 Y 9.1568 Z 0.0000
G01 X 211.7687 Y 8.8719 Z 0.0000
G01 X 211.7187 Y 8.6023 Z 0.0000
G01 X 211.6347 Y 8.3478 Z 0.0000
G01 X 211.5177 Y 8.1087 Z 0.0000
G01 X 211.3737 Y 7.8802 Z 0.0000
G01 X 211.2087 Y 7.6567 Z 0.0000
G01 X 211.0227 Y 7.4382 Z 0.0000
G01 X 210.8157 Y 7.2247 Z 0.0000
G01 X 210.5917 Y 7.0137 Z 0.0000
G01 X 210.3557 Y 6.8027 Z 0.0000
G01 X 210.1057 Y 6.5917 Z 0.0000
G01 X 209.8427 Y 6.3807 Z 0.0000
G01 X 209.5727 Y 6.1653 Z 0.0000
G01 X 209.3007 Y 5.9410 Z 0.0000
G01 X 209.0277 Y 5.7078 Z 0.0000
G01 X 208.7537 Y 5.4657 Z 0.0000
G01 X 208.4827 Y 5.2120 Z 0.0000
G01 X 208.2177 Y 4.9437 Z 0.0000
G01 X 207.9587 Y 4.6610 Z 0.0000
G01 X 207.7057 Y 4.3637 Z 0.0000
G01 X 207.4667 Y 4.0475 Z 0.0000
G01 X 207.2457 Y 3.7080 Z 0.0000
G01 X 207.0447 Y 3.3450 Z 0.0000
G01 X 206.8617 Y 2.9587 Z 0.0000
G01 X 206.8617 Y 2.0967 Z 0.0000
G01 X 213.1887 Y 2.0967 Z 0.0000
G01 X 213.1887 Y 3.1347 Z 0.0000
G00 Z 5.0000

(End cutting path id: path102)


(Start cutting path id: path102)
(Change tool to Default tool)

G00 Z 5.0000
G00 X 218.3257 Y 2.0477

G01 Z 0.0000 F 100.0000(Penetrate)
G01 X 218.9987 Y 2.2847 Z 0.0000 F 400.0000
G01 X 219.5717 Y 2.6797 Z 0.0000
G01 X 220.0437 Y 3.2327 Z 0.0000
G01 X 220.4127 Y 3.9361 Z 0.0000
G01 X 220.6767 Y 4.7812 Z 0.0000
G01 X 220.8347 Y 5.7681 Z 0.0000
G01 X 220.8877 Y 6.8967 Z 0.0000
G01 X 220.8377 Y 8.0420 Z 0.0000
G01 X 220.6867 Y 9.0378 Z 0.0000
G01 X 220.4357 Y 9.8840 Z 0.0000
G01 X 220.0837 Y 10.5808 Z 0.0000
G01 X 219.6267 Y 11.1250 Z 0.0000
G01 X 219.0597 Y 11.5138 Z 0.0000
G01 X 218.3817 Y 11.7470 Z 0.0000
G01 X 217.5927 Y 11.8247 Z 0.0000
G01 X 216.7827 Y 11.7478 Z 0.0000
G01 X 216.0897 Y 11.5170 Z 0.0000
G01 X 215.5127 Y 11.1323 Z 0.0000
G01 X 215.0527 Y 10.5938 Z 0.0000
G01 X 214.7017 Y 9.9014 Z 0.0000
G01 X 214.4507 Y 9.0545 Z 0.0000
G01 X 214.2997 Y 8.0529 Z 0.0000
G01 X 214.2497 Y 6.8967 Z 0.0000
G01 X 214.3017 Y 5.7624 Z 0.0000
G01 X 214.4567 Y 4.7725 Z 0.0000
G01 X 214.7147 Y 3.9269 Z 0.0000
G01 X 215.0767 Y 3.2257 Z 0.0000
G01 X 215.5417 Y 2.6758 Z 0.0000
G01 X 216.1087 Y 2.2830 Z 0.0000
G01 X 216.7787 Y 2.0473 Z 0.0000
G01 X 217.5517 Y 1.9687 Z 0.0000
G01 X 218.3257 Y 2.0477 Z 0.0000
G00 Z 5.0000

(End cutting path id: path102)


(Start cutting path id: path102)
(Change tool to Default tool)

G00 Z 5.0000
G00 X 217.0597 Y 3.0248

G01 Z 0.0000 F 100.0000(Penetrate)
G01 X 216.6267 Y 3.2020 Z 0.0000 F 400.0000
G01 X 216.2677 Y 3.4973 Z 0.0000
G01 X 215.9817 Y 3.9107 Z 0.0000
G01 X 215.7637 Y 4.4521 Z 0.0000
G01 X 215.6077 Y 5.1302 Z 0.0000
G01 X 215.5147 Y 5.9451 Z 0.0000
G01 X 215.4837 Y 6.8967 Z 0.0000
G01 X 215.5147 Y 7.8737 Z 0.0000
G01 X 215.6067 Y 8.7027 Z 0.0000
G01 X 215.7597 Y 9.3837 Z 0.0000
G01 X 215.9747 Y 9.9168 Z 0.0000
G01 X 216.2607 Y 10.3184 Z 0.0000
G01 X 216.6247 Y 10.6053 Z 0.0000
G01 X 217.0697 Y 10.7774 Z 0.0000
G01 X 217.5927 Y 10.8348 Z 0.0000
G01 X 218.1027 Y 10.7765 Z 0.0000
G01 X 218.5357 Y 10.6017 Z 0.0000
G01 X 218.8907 Y 10.3105 Z 0.0000
G01 X 219.1687 Y 9.9028 Z 0.0000
G01 X 219.3777 Y 9.3654 Z 0.0000
G01 X 219.5267 Y 8.6852 Z 0.0000
G01 X 219.6167 Y 7.8623 Z 0.0000
G01 X 219.6467 Y 6.8967 Z 0.0000
G01 X 219.6157 Y 5.9618 Z 0.0000
G01 X 219.5207 Y 5.1560 Z 0.0000
G01 X 219.3647 Y 4.4793 Z 0.0000
G01 X 219.1447 Y 3.9317 Z 0.0000
G01 X 218.8577 Y 3.5091 Z 0.0000
G01 X 218.4997 Y 3.2072 Z 0.0000
G01 X 218.0687 Y 3.0261 Z 0.0000
G01 X 217.5657 Y 2.9657 Z 0.0000
G01 X 217.0597 Y 3.0248 Z 0.0000
G00 Z 5.0000

(End cutting path id: path102)


(Start cutting path id: path102)
(Change tool to Default tool)

G00 Z 5.0000
G00 X 263.1887 Y 3.1347

G01 Z 0.0000 F 100.0000(Penetrate)
G01 X 258.2047 Y 3.1347 Z 0.0000 F 400.0000
G01 X 258.3227 Y 3.3751 Z 0.0000
G01 X 258.4727 Y 3.6202 Z 0.0000
G01 X 258.6547 Y 3.8701 Z 0.0000
G01 X 258.8687 Y 4.1247 Z 0.0000
G01 X 259.1197 Y 4.3896 Z 0.0000
G01 X 259.4107 Y 4.6702 Z 0.0000
G01 X 259.7407 Y 4.9666 Z 0.0000
G01 X 260.1107 Y 5.2787 Z 0.0000
G01 X 260.7617 Y 5.8189 Z 0.0000
G01 X 261.2987 Y 6.2835 Z 0.0000
G01 X 261.7207 Y 6.6724 Z 0.0000
G01 X 262.0287 Y 6.9857 Z 0.0000
G01 X 262.2647 Y 7.2616 Z 0.0000
G01 X 262.4687 Y 7.5375 Z 0.0000
G01 X 262.6427 Y 7.8131 Z 0.0000
G01 X 262.7847 Y 8.0887 Z 0.0000
G01 X 262.8967 Y 8.3646 Z 0.0000
G01 X 262.9757 Y 8.6415 Z 0.0000
G01 X 263.0237 Y 8.9192 Z 0.0000
G01 X 263.0397 Y 9.1978 Z 0.0000
